;FLAVOR:Marlin
;TIME:42
;Filament used: 0.0381914m
;Layer height: 0.5
;MINX:14.376
;MINY:9.123
;MINZ:0.3
;MAXX:27.47
;MAXY:20.476
;MAXZ:3.8
;Generated with Cura_SteamEngine 4.6.0
M104 S200
M105
M109 S200
M82 ;absolute extrusion mode
G28 ;Home

G92 E0
G92 E0
;LAYER_COUNT:8
;LAYER:0
M107
;MESH:rex.stl
G0 F3600 X22.336 Y18.729 Z0.3
;TYPE:WALL-OUTER
G1 F973.1 X22.36 Y18.869 E0.00668
G1 X22.371 Y18.926 E0.00941
G1 X22.287 Y18.902 E0.00944
G1 X22.245 Y18.89 E0.00963
G1 X22.215 Y18.769 E0.00996
G1 X22.161 Y18.552 E0.01998
G1 X22.107 Y18.337 E0.0304
G1 X22.062 Y18.159 E0.03903
G1 X22.032 Y18.04 E0.04481
G1 X22.025 Y18.01 E0.04625
G1 X21.256 Y14.947 E0.19477
G1 X21.195 Y14.807 E0.20195
G1 X17.366 Y10.462 E0.4743
G1 X16.575 Y10.07 E0.51581
G1 X14.659 Y9.123 E0.61632
G1 X16.796 Y9.123 E0.66788
G1 X16.797 Y9.123 E0.66793
G1 X17.896 Y9.123 E0.71961
G1 X20.084 Y10.502 E0.84124
G1 X20.134 Y10.533 E0.844
G1 X20.366 Y10.719 E0.85799
G1 X20.412 Y10.756 E0.86076
G1 X20.984 Y10.389 E0.89272
G1 X21.016 Y10.368 E0.89452
G1 X21.004 Y10.317 E0.89551
G1 X20.929 Y10.019 E0.90794
G1 X20.919 Y9.96 E0.91075
G1 X20.775 Y9.125 E0.9506
G1 X20.929 Y9.125 E0.95748
G1 X21.893 Y9.125 E1.00282
G1 X22.336 Y9.125 E1.02365
G1 X23.557 Y9.125 E1.08107
G1 X23.655 Y9.125 E1.08568
G1 X23.988 Y9.126 E1.10134
G1 X23.655 Y9.615 E1.1145
G1 X23.557 Y9.639 E1.11471
G1 X22.336 Y9.199 E1.13453
G1 X21.893 Y9.58 E1.14533
G1 X21.948 Y9.851 E1.15834
G1 X21.969 Y10.323 E1.18055
G1 X21.97 Y10.361 E1.18231
G1 X22.036 Y11.755 E1.24793
G1 X23.552 Y12.211 E1.32238
G1 X23.719 Y13.404 E1.37903
G1 X23.686 Y13.716 E1.39378
G1 X23.937 Y13.841 E1.40697
G1 X24.042 Y13.894 E1.4125
G1 X23.908 Y13.999 E1.4136
G1 X23.828 Y14.061 E1.41491
G1 X23.879 Y14.367 E1.42949
G1 X24.1 Y15.512 E1.48433
G1 X24.404 Y15.623 E1.49955
G1 X24.752 Y15.741 E1.51683
G1 X25.235 Y15.906 E1.54083
G1 X25.409 Y15.966 E1.54949
G1 X25.61 Y16.035 E1.55948
G1 X25.331 Y16.195 E1.5645
G1 X25.087 Y16.341 E1.56923
G1 X24.67 Y15.984 E1.58161
G1 X24.331 Y15.825 E1.58589
G1 X23.857 Y16.16 E1.60278
G1 X23.886 Y16.469 E1.61737
G1 X23.979 Y17.611 E1.67125
G1 X23.985 Y17.677 E1.67437
G1 X24.007 Y17.932 E1.68641
G1 X23.69 Y17.702 E1.69296
G1 X23.411 Y17.658 E1.70217
G1 X23.17 Y17.696 E1.71364
G1 X22.981 Y17.794 E1.72366
G1 X22.954 Y17.808 E1.72495
G1 X22.785 Y17.977 E1.735
G1 X22.674 Y18.194 E1.7433
G1 X22.636 Y18.433 E1.74973
G1 X22.671 Y18.655 E1.75534
G1 X22.336 Y18.729 E1.77147
G0 F3600 X22.36 Y18.869
G0 X22.371 Y18.926
G0 X22.287 Y18.902
G0 X22.245 Y18.89
G0 X22.215 Y18.769
G0 X22.204 Y18.725
G0 X22.253 Y18.674
G0 X24.335 Y19.477
G0 X25.525 Y19.327
G0 X25.547 Y19.23
G1 F973.1 X25.673 Y19.135 E1.77889
G1 X26.017 Y18.877 E1.79912
G1 X26.165 Y18.773 E1.80762
G1 X26.24 Y18.72 E1.81194
G1 X26.253 Y18.744
G1 X26.292 Y18.813
G1 X26.658 Y19.469 E1.83788
G1 X26.67 Y19.49 E1.83871
G1 X26.707 Y19.467
G1 X27.081 Y19.233 E1.8518
G1 X27.045 Y19.535 E1.85297
G1 X26.965 Y20.198 E1.87348
G1 X26.927 Y20.217 E1.87548
G1 X26.813 Y20.185
G1 X26.499 Y20.096 E1.88096
G1 X25.391 Y19.783 E1.9351
G1 X24.648 Y19.572 E1.96799
G1 X24.524 Y19.537 E1.97405
G1 X24.354 Y19.488 E1.98237
G1 X24.316 Y19.477 E1.98423
G1 X24.698 Y19.393 E1.99118
G1 X24.696 Y19.382 E1.9917
G1 X24.576 Y18.709 E2.02385
G1 X24.789 Y18.609 E2.03389
G1 X25.044 Y18.446 E2.04812
G1 X25.12 Y18.397 E2.05238
G1 X25.133 Y18.423
G1 X25.436 Y19.015 E2.07341
G1 X25.483 Y19.107 E2.07444
G1 X25.501 Y19.141
G1 X25.547 Y19.23
G0 F3600 X25.673 Y19.135
G0 X25.947 Y18.93
G0 X26.006 Y19.011
G0 X26.213 Y16.664
G0 X26.208 Y16.683
G1 F973.1 X25.88 Y16.127 E2.1048
G1 X26.343 Y16.285 E2.10802
G1 X26.731 Y16.418 E2.12431
G1 X26.208 Y16.683 E2.13479
G0 F3600 X25.954 Y16.252
G0 X26.014 Y16.277
G0 X23.088 Y15.492
;TYPE:SKIN
G1 F973.1 X22.818 Y15.683 E2.15034
G1 X22.915 Y16.734 E2.19997
G1 X22.857 Y16.743 E2.20273
G1 X22.742 Y16.803 E2.20883
G1 X22.196 Y14.626 E2.31438
G1 X22.04 Y14.269 E2.3327
G1 X19.337 Y11.202 E2.52495
G1 X19.559 Y11.342 E2.5373
G1 X20.349 Y11.974 E2.58487
G1 X21.035 Y11.533 E2.62322
G1 X21.08 Y12.501 E2.66879
G1 X22.659 Y12.977 E2.74635
G1 X22.722 Y13.42 E2.76739
G1 X22.629 Y14.295 E2.80877
G1 X22.885 Y14.423 E2.82223
G1 X22.905 Y14.542 E2.82791
G1 X23.088 Y15.492 E2.8734
G0 F3600 X22.213 Y13.728
G1 F973.1 X21.779 Y13.294 E2.90226
;MESH:NONMESH
G0 F600 X21.779 Y13.294 Z0.8
G0 F3600 X23.683 Y15.609
;TIME_ELAPSED:5.291866
;LAYER:1
;TYPE:WALL-OUTER
;MESH:rex.stl
G1 F905.4 X23.928 Y18.562 E3.13451
G1 X23.957 Y18.921 E3.16274
G1 X24.981 Y18.486 E3.24994
G1 X25.042 Y18.447 E3.25561
G1 X25.119 Y18.397 E3.26281
G1 X25.126 Y18.411
G1 X25.484 Y19.108 E3.3056
G1 X25.538 Y19.214 E3.31403
G1 X25.641 Y19.142
G1 X26.166 Y18.773 E3.3497
G1 X26.24 Y18.721 E3.35559
G1 X26.283 Y18.798
G1 X26.656 Y19.467 E3.39936
G1 X26.663 Y19.479 E3.3999
G1 X26.681 Y19.469 E3.40151
G1 X26.786 Y19.407 E3.40665
G1 X26.955 Y19.307 E3.41619
G1 X27.151 Y19.191 E3.42284
G1 X27.111 Y19.531 E3.43228
G1 X27.107 Y19.563
G1 X26.996 Y19.717 E3.43727
G1 X26.982 Y19.737
G1 X26.928 Y20.101 E3.45741
G1 X26.996 Y20.245 E3.46989
G1 X26.925 Y20.284 E3.47624
G1 X26.903 Y20.278
G1 X26.88 Y20.272
G1 X26.833 Y20.258
G1 X26.471 Y20.154 E3.49235
G1 X25.687 Y19.93 E3.55626
G1 X25.362 Y19.838 E3.578
G1 X23.821 Y19.402 E3.70352
G1 X23.474 Y19.304 E3.72597
G1 X22.205 Y18.944 E3.82936
G1 X22.027 Y18.22 E3.88779
G1 X21.186 Y14.868 E4.15866
G1 X17.335 Y10.497 E4.61524
G1 X16.474 Y10.071 E4.69053
G1 X14.559 Y9.123 E4.85801
G1 X16.695 Y9.123 E4.94391
G1 X16.696 Y9.123 E4.94399
G1 X18.011 Y9.123 E5.04705
G1 X19.631 Y10.143 E5.1971
G1 X20.091 Y10.5 E5.24273
G1 X20.419 Y10.754 E5.27525
G1 X20.997 Y10.378 E5.32929
G1 X21.014 Y10.367 E5.33088
G1 X20.916 Y9.963 E5.35899
G1 X20.846 Y9.678 E5.38199
G1 X20.8 Y9.41 E5.4033
G1 X20.759 Y9.174 E5.42208
G1 X20.846 Y9.174
G1 X21.479 Y9.174 E5.45497
G1 X22.494 Y9.174 E5.53453
G1 X23.252 Y9.174 E5.59394
G1 X23.405 Y9.174 E5.60593
G1 X23.595 Y9.174 E5.62082
G1 X23.405 Y9.453 E5.63137
G1 X23.252 Y9.493
G1 X22.494 Y9.22 E5.64514
G1 X21.479 Y9.292 E5.65178
G1 X21.503 Y9.34
G1 X21.661 Y9.647 E5.65513
G1 X21.818 Y9.953 E5.66789
G1 X21.987 Y10.281 E5.6968
G1 X21.988 Y10.321 E5.69994
G1 X21.988 Y10.341 E5.70151
G1 X22.053 Y11.7 E5.80815
G1 X23.629 Y12.17 E5.93704
G1 X23.737 Y12.94 E5.99798
G1 X23.64 Y13.646 E6.05384
G1 X23.863 Y13.88 E6.07917
G1 X23.587 Y14.162 E6.1101
G1 X23.952 Y14.678 E6.15964
G1 X24.11 Y15.491 E6.22455
G1 X24.952 Y15.78 E6.29432
G1 X25.245 Y15.881 E6.31861
G1 X25.633 Y16.014 E6.35076
G1 X25.088 Y16.341 E6.37231
G1 X24.834 Y16.124 E6.38803
G1 X23.995 Y15.749 E6.41203
G1 X23.683 Y15.609 E6.4232
G0 F5400 X23.724 Y16.107
G0 X23.625 Y16.113
G0 X25.614 Y16.016
G0 X26.352 Y16.259
G1 F905.4 X26.762 Y16.399 E6.45716
G1 X26.208 Y16.683 E6.47628
G1 X25.858 Y16.09 E6.52535
G1 X26.352 Y16.259 E6.53167
G0 F5400 X26.762 Y16.399
G0 X26.703 Y16.429
G0 X26.962 Y16.487
G1 F905.4 X26.95 Y16.463 E6.53377
G1 X26.984 Y16.475 E6.53435
G1 X27.03 Y16.543 E6.53681
G1 X27.013 Y16.59 E6.54073
G1 X26.998 Y16.56
G1 X26.962 Y16.487 E6.54088
G0 F5400 X26.95 Y16.463
G0 X26.984 Y16.475
G0 X27.03 Y16.543
G0 X27.013 Y16.59
G0 X26.998 Y16.56
G0 X26.962 Y16.487
G0 X26.95 Y16.463
G0 X26.984 Y16.475
G0 X27.03 Y16.543
G0 X27.013 Y16.59
G0 X26.919 Y16.557
G0 X25.874 Y16.102
G0 X23.66 Y15.575
G0 X22.836 Y17.375
;TYPE:SKIN
G1 F905.4 X22.087 Y14.394 E6.78179
G1 X19.051 Y10.948 E7.14174
G1 X19.068 Y10.958 E7.14329
G1 X20.369 Y11.968 E7.27238
G1 X21.054 Y11.522 E7.33645
G1 X21.097 Y12.448 E7.4091
G1 X22.737 Y12.937 E7.54323
G1 X22.738 Y12.941 E7.54356
G1 X22.63 Y13.724 E7.60551
G1 X22.302 Y14.059 E7.64225
G1 X22.596 Y14.474 E7.68211
G1 X22.836 Y17.375 E7.91026
G0 F5400 X21.878 Y13.476
G1 F905.4 X22.13 Y13.225 E7.93814
;MESH:NONMESH
G0 F600 X22.13 Y13.225 Z1.3
G0 F5400 X21.446 Y9.272
G0 X23.097 Y9.274
G0 X23.097 Y9.246
;TIME_ELAPSED:10.614188
;LAYER:2
;TYPE:WALL-OUTER
;MESH:rex.stl
G1 F885.5 X22.871 Y9.311 E7.95657
G1 X22.655 Y9.232 E7.9746
G1 X22.871 Y9.232 E7.975
G1 X23.106 Y9.233 E7.97605
G1 X23.097 Y9.246
G0 F7200 X22.871 Y9.311
G0 X22.655 Y9.232
G0 X22.691 Y9.232
G0 X22.69 Y9.331
G0 X21.487 Y9.717
G0 X21.935 Y11.286
G0 X23.463 Y15.545
G0 X23.52 Y15.625
G1 F885.5 X23.766 Y18.591 E8.20931
G1 X23.794 Y18.932 E8.23613
G1 X25.109 Y18.377 E8.348
G1 X25.483 Y19.108 E8.41235
G1 X25.538 Y19.214 E8.42171
G1 X25.644 Y19.14
G1 X26.166 Y18.773 E8.45727
G1 X26.24 Y18.721 E8.46316
G1 X26.283 Y18.798
G1 X26.655 Y19.465 E8.50677
G1 X26.663 Y19.479 E8.50751
G1 X26.681 Y19.469 E8.50912
G1 X27.215 Y19.153 E8.54147
G1 X27.178 Y19.53 E8.54474
G1 X27.104 Y20.267 E8.58566
G1 X26.923 Y20.369 E8.60119
G1 X26.449 Y20.234 E8.63698
G1 X25.338 Y19.918 E8.72751
G1 X23.651 Y19.437 E8.865
G1 X23.322 Y19.344 E8.88655
G1 X22.159 Y19.012 E8.98134
G1 X21.133 Y14.895 E9.31389
G1 X19.118 Y12.609 E9.55273
G1 X19.117 Y12.608 E9.55284
G1 X17.299 Y10.541 E9.7686
G1 X16.405 Y10.099 E9.84676
G1 X15.53 Y9.666 E9.92328
G1 X14.483 Y9.123 E10.01572
G1 X15.53 Y9.123 E10.03603
G1 X16.507 Y9.123 E10.09558
G1 X18.154 Y9.123 E10.22467
G1 X18.992 Y9.651 E10.3023
G1 X20.091 Y10.501 E10.41119
G1 X20.419 Y10.754 E10.44366
G1 X21.014 Y10.367 E10.49929
G1 X20.916 Y9.964 E10.52733
G1 X20.783 Y9.421 E10.57115
G1 X20.772 Y9.375 E10.57485
G1 X20.739 Y9.242 E10.5856
G1 X20.737 Y9.233 E10.58632
G1 X21.271 Y9.233 E10.61137
G1 X21.552 Y9.232 E10.6289
G1 X21.272 Y9.252 E10.62907
G1 X21.322 Y9.349
G1 X21.482 Y9.661 E10.64845
G1 X21.671 Y10.029 E10.67756
G1 X22.031 Y10.73 E10.73933
G1 X22.073 Y11.63 E10.80995
G1 X23.02 Y11.914 E10.88743
G1 X23.724 Y12.111 E10.94473
G1 X23.761 Y12.369 E10.96516
G1 X23.578 Y13.715 E11.07163
G1 X23.688 Y13.83 E11.0841
G1 X23.429 Y14.095 E11.11314
G1 X24.019 Y14.925 E11.19296
G1 X24.123 Y15.457 E11.23544
G1 X25.204 Y15.827 E11.32499
G1 X25.257 Y15.845 E11.32938
G1 X25.675 Y15.988 E11.36401
G1 X25.088 Y16.341 E11.38798
G1 X25.042 Y16.302
G1 X23.962 Y15.822 E11.43048
G1 X23.677 Y15.695 E11.44354
G1 X23.52 Y15.625 E11.4488
G0 F7200 X23.561 Y16.123
G0 X23.462 Y16.129
G0 X25.633 Y15.994
G0 X26.365 Y16.224
G1 F885.5 X26.807 Y16.376 E11.48543
G1 X26.208 Y16.683 E11.50695
G1 X25.829 Y16.041 E11.56068
G1 X26.365 Y16.224 E11.56848
G0 F7200 X26.807 Y16.376
G0 X26.778 Y16.391
G0 X26.952 Y16.466
G1 F885.5 X26.927 Y16.417 E11.57279
G1 X26.999 Y16.442 E11.57409
G1 X27.087 Y16.569 E11.57899
G1 X27.052 Y16.668 E11.58722
G1 X27.02 Y16.603
G1 X26.952 Y16.466 E11.58791
G0 F7200 X26.927 Y16.417
G0 X26.999 Y16.442
G0 X27.087 Y16.569
G0 X27.052 Y16.668
G0 X27.02 Y16.603
G0 X27.003 Y16.569
G0 X26.975 Y16.585
G0 X25.843 Y16.053
G0 X23.497 Y15.594
G0 X22.623 Y16.779
;TYPE:SKIN
G1 F885.5 X22.036 Y14.422 E11.77829
G1 X18.815 Y10.766 E12.16018
G1 X20.37 Y11.967 E12.31418
G1 X21.077 Y11.507 E12.38028
G1 X21.117 Y12.377 E12.44854
G1 X22.697 Y12.851 E12.57783
G1 X22.606 Y13.52 E12.63075
G1 X22.142 Y13.994 E12.68274
G1 X22.424 Y14.391 E12.72091
G1 X22.623 Y16.779 E12.90872
G0 F7200 X21.99 Y13.505
G1 F885.5 X21.424 Y12.939 E12.97146
;MESH:NONMESH
G0 F600 X21.424 Y12.939 Z1.8
G0 F7200 X23.357 Y15.638
;TIME_ELAPSED:15.977667
;LAYER:3
;TYPE:WALL-OUTER
;MESH:rex.stl
G1 F847.7 X23.562 Y18.102 E13.16525
G1 X23.602 Y18.621 E13.20604
G1 X23.627 Y18.948 E13.23175
G1 X23.875 Y18.843 E13.25286
G1 X25.086 Y18.331 E13.35591
G1 X25.481 Y19.107 E13.42415
G1 X25.536 Y19.215 E13.43365
G1 X25.65 Y19.135
G1 X26.164 Y18.774 E13.46871
G1 X26.24 Y18.721 E13.47475
G1 X26.284 Y18.8
G1 X26.651 Y19.463 E13.51799
G1 X26.661 Y19.481 E13.51905
G1 X26.682 Y19.469
G1 X27.278 Y19.116 E13.55621
G1 X27.243 Y19.53 E13.5608
G1 X27.177 Y20.306 E13.60612
G1 X27.154 Y20.319 E13.60816
G1 X26.925 Y20.454 E13.62899
G1 X26.425 Y20.312 E13.66973
G1 X25.314 Y19.995 E13.76028
G1 X23.478 Y19.471 E13.90993
G1 X23.163 Y19.381 E13.93078
G1 X22.108 Y19.08 E14.01677
G1 X21.848 Y18.02 E14.10231
G1 X21.846 Y18.017 E14.10259
G1 X21.419 Y16.295 E14.24165
G1 X21.419 Y16.292 E14.24188
G1 X21.079 Y14.921 E14.35259
G1 X20.577 Y14.355 E14.41189
G1 X20.557 Y14.355 E14.41346
G1 X20.557 Y14.33 E14.41542
G1 X19.354 Y12.962 E14.5582
G1 X19.23 Y12.962 E14.56792
G1 X19.23 Y12.821 E14.57897
G1 X18.17 Y11.617 E14.70469
G1 X18.141 Y11.617 E14.70697
G1 X18.141 Y11.582 E14.70971
G1 X17.265 Y10.587 E14.81361
G1 X16.636 Y10.271 E14.86878
G1 X16.242 Y10.067 E14.90356
G1 X16.241 Y10.066 E14.90367
G1 X14.422 Y9.123 E15.06426
G1 X16.471 Y9.123 E15.14685
G1 X16.472 Y9.123 E15.14692
G1 X18.298 Y9.123 E15.29004
G1 X18.36 Y9.162 E15.29578
G1 X20.091 Y10.501 E15.46731
G1 X20.419 Y10.754 E15.49977
G1 X20.816 Y10.495 E15.53693
G1 X21.014 Y10.367 E15.5554
G1 X20.916 Y9.964 E15.58344
G1 X20.772 Y9.376 E15.63089
G1 X20.751 Y9.293 E15.6376
G1 X21.107 Y9.293 E15.65299
G1 X21.524 Y10.105 E15.72453
G1 X21.631 Y10.315 E15.74007
G1 X22.076 Y11.18 E15.81631
G1 X22.095 Y11.561 E15.84621
G1 X22.564 Y11.702 E15.88459
G1 X23.751 Y12.032 E15.98115
G1 X23.516 Y13.774 E16.11892
G1 X23.27 Y14.027 E16.14658
G1 X24.059 Y15.139 E16.25345
G1 X24.085 Y15.176 E16.25699
G1 X24.136 Y15.425 E16.27691
G1 X25.222 Y15.797 E16.36689
G1 X25.714 Y15.966 E16.40766
G1 X25.023 Y16.38 E16.43801
G1 X23.928 Y15.893 E16.49188
G1 X23.793 Y15.833 E16.498
G1 X23.357 Y15.638 E16.53117
G0 F7200 X23.398 Y16.136
G0 X23.299 Y16.142
G0 X25.662 Y15.965
G0 X26.058 Y16.429
G1 F847.7 X25.8 Y15.996 E16.57068
G1 X26.163 Y16.12 E16.57334
G1 X26.376 Y16.193 E16.57445
G1 X26.847 Y16.355 E16.60243
G1 X26.208 Y16.684 E16.62615
G1 X26.058 Y16.429 E16.63631
G0 F7200 X25.803 Y16
G0 X25.847 Y16.064
G0 X26.897 Y16.476
G0 X26.929 Y16.383
G1 F847.7 X27.011 Y16.41 E16.64308
G1 X27.144 Y16.595 E16.66094
G1 X27.09 Y16.746 E16.67351
G1 X27.041 Y16.649
G1 X26.938 Y16.448 E16.67519
G1 X26.91 Y16.393
G1 X26.9 Y16.373
G1 X26.929 Y16.383
G0 F7200 X27.011 Y16.41
G0 X27.144 Y16.595
G0 X27.09 Y16.746
G0 X27.078 Y16.722
G0 X27.003 Y16.695
G0 X25.812 Y16.007
G0 X23.334 Y15.606
G0 X22.408 Y16.168
;TYPE:SKIN
G1 F847.7 X21.982 Y14.446 E16.81422
G1 X21.511 Y13.915 E16.86985
G1 X19.131 Y11.21 E17.15225
G1 X19.131 Y11.208 E17.1524
G1 X18.585 Y10.588 E17.21715
G1 X20.37 Y11.967 E17.39394
G1 X21.101 Y11.492 E17.46227
G1 X21.141 Y12.308 E17.5263
G1 X22.289 Y12.653 E17.62026
G1 X22.654 Y12.754 E17.64994
G1 X22.578 Y13.319 E17.69462
G1 X21.985 Y13.928 E17.76124
G1 X22.253 Y14.305 E17.7975
G1 X22.408 Y16.168 E17.94402
G0 F7200 X22.416 Y16.163
;MESH:NONMESH
G0 F600 X22.416 Y16.163 Z2.3
G0 F7200 X23.3 Y15.557
G0 X23.313 Y15.642
;TIME_ELAPSED:21.250162
;LAYER:4
;TYPE:WALL-OUTER
;MESH:rex.stl
G1 F888.5 X23.327 Y15.819 E17.95793
G1 X23.562 Y18.628 E18.17887
G1 X23.563 Y18.629 E18.17898
G1 X23.588 Y18.949 E18.20413
G1 X23.884 Y18.824 E18.2191
G1 X25.08 Y18.319 E18.32085
G1 X25.483 Y19.107 E18.39022
G1 X25.538 Y19.214 E18.39965
G1 X25.652 Y19.134
G1 X26.166 Y18.773 E18.43475
G1 X26.24 Y18.721 E18.44063
G1 X26.283 Y18.798
G1 X26.653 Y19.462 E18.48399
G1 X26.663 Y19.479 E18.48498
G1 X26.681 Y19.468
G1 X26.691 Y19.463 E18.48586
G1 X27.297 Y19.104 E18.52406
G1 X27.262 Y19.529 E18.52918
G1 X27.195 Y20.315 E18.57577
G1 X27.168 Y20.331 E18.5782
G1 X26.923 Y20.476 E18.60052
G1 X26.42 Y20.333 E18.6415
G1 X25.31 Y20.016 E18.73198
G1 X23.437 Y19.481 E18.88465
G1 X23.127 Y19.393 E18.90991
G1 X22.096 Y19.098 E18.99396
G1 X21.806 Y17.922 E19.08889
G1 X21.705 Y17.879 E19.0975
G1 X21.763 Y17.745 E19.10894
G1 X21.4 Y16.288 E19.22663
G1 X21.161 Y16.185 E19.24702
G1 X21.298 Y15.868 E19.27409
G1 X21.064 Y14.929 E19.34994
G1 X20.559 Y14.355 E19.40986
G1 X20.28 Y14.355 E19.43173
G1 X20.28 Y14.039 E19.45649
G1 X19.334 Y12.962 E19.56885
G1 X18.951 Y12.962 E19.59887
G1 X18.952 Y12.529 E19.6328
G1 X18.15 Y11.617 E19.72799
G1 X17.861 Y11.617 E19.75064
G1 X17.861 Y11.289 E19.77635
G1 X17.257 Y10.601 E19.8481
G1 X16.752 Y10.341 E19.89262
G1 X16.663 Y10.375 E19.90009
G1 X16.623 Y10.273 E19.90868
G1 X16.29 Y10.1 E19.93809
G1 X15.572 Y9.728 E20.00147
G1 X15.51 Y9.751 E20.00665
G1 X15.483 Y9.681 E20.01253
G1 X14.476 Y9.159 E20.10143
G1 X14.401 Y9.187 E20.10771
G1 X14.376 Y9.123 E20.11309
G1 X14.401 Y9.123
G1 X14.476 Y9.123 E20.11331
G1 X15.483 Y9.123 E20.13493
G1 X15.51 Y9.123 E20.13565
G1 X15.572 Y9.123 E20.13861
G1 X16.381 Y9.123 E20.18986
G1 X18.31 Y9.123 E20.34105
G1 X20.091 Y10.501 E20.51754
