;FLAVOR:Marlin
;TIME:130
;Filament used: 0.237814m
;Layer height: 0.5
;MINX:6.047
;MINY:2.752
;MINZ:0.3
;MAXX:35.024
;MAXY:26.847
;MAXZ:7.8
;Generated with Cura_SteamEngine 4.6.0
M104 S200
M105
M109 S200
M82 ;absolute extrusion mode
G28 ;Home
G92 E0
G92 E0
;LAYER_COUNT:16
;LAYER:0
M107
;MESH:rex.stl
G0 F3600 X23.94 Y3.691 Z0.3
;TYPE:WALL-OUTER
G1 F1800 X23.963 Y4.197 E0.02382
G1 X24.153 Y8.312 E0.21754
G1 X27.196 Y9.226 E0.36696
G1 X27.638 Y12.384 E0.51691
G1 X28.136 Y12.633 E0.5431
G1 X28.365 Y12.747 E0.55513
G1 X28.701 Y12.915 E0.57279
G1 X29.708 Y13.419 E0.62575
G1 X29.966 Y13.21 E0.64136
G1 X30.516 Y12.765 E0.67463
G1 X30.537 Y13.305 E0.70005
G1 X30.54 Y13.386
G1 X30.562 Y13.945 E0.72058
G1 X29.654 Y13.543 E0.74997
G1 X29.58 Y13.511 E0.75376
G1 X28.618 Y13.083 E0.80327
G1 X28.274 Y12.931 E0.81394
G1 X28.151 Y13.028 E0.8149
G1 X27.8 Y13.308 E0.82969
G1 X27.87 Y13.678 E0.84739
G1 X28.303 Y15.938 E0.95561
G1 X31.067 Y16.884 E1.09299
G1 X31.41 Y17.001 E1.11003
G1 X31.84 Y17.148 E1.1314
G1 X33.323 Y17.656 E1.20512
G1 X33.657 Y17.77 E1.22172
G1 X34.036 Y17.9 E1.24056
G1 X34.099 Y17.998 E1.24604
G1 X34.242 Y18.218 E1.25838
G1 X34.085 Y18.663 E1.28057
G1 X33.861 Y19.293 E1.31201
G1 X33.508 Y18.585 E1.32681
G1 X33.431 Y18.432 E1.33003
G1 X33.117 Y18.593 E1.34432
G1 X32.08 Y19.126 E1.39915
G1 X31.451 Y18.062 E1.45727
G1 X31.427 Y18.021 E1.45951
G1 X31.196 Y17.629 E1.47753
G1 X30.885 Y17.815 E1.49196
G1 X30.765 Y17.887 E1.49855
G1 X29.919 Y18.395 E1.54495
G1 X28.777 Y17.416 E1.61569
G1 X28.473 Y17.156 E1.6345
G1 X27.876 Y17.462 E1.66605
G1 X27.909 Y17.861 E1.682
G1 X28.18 Y21.121 E1.83584
G1 X28.182 Y21.155 E1.83744
G1 X28.205 Y21.424 E1.85013
G1 X28.233 Y21.75 E1.86552
G1 X28.263 Y22.101 E1.88209
G1 X28.281 Y22.314 E1.89214
G1 X27.752 Y22.414 E1.91746
G1 X27.742 Y22.416 E1.91794
G1 X27.645 Y22.435 E1.92259
G1 X27.68 Y22.218 E1.92314
G1 X27.691 Y22.149
G1 X27.635 Y21.8 E1.93336
G1 X27.475 Y21.485 E1.9461
G1 X27.225 Y21.235 E1.9606
G1 X27.194 Y21.22 E1.96222
G1 X26.909 Y21.073 E1.9773
G1 X26.56 Y21.019 E1.99391
G1 X26.212 Y21.073 E2.01047
G1 X25.896 Y21.235 E2.02717
G1 X25.647 Y21.484 E2.04373
G1 X25.484 Y21.8 E2.06045
G1 X25.43 Y22.149 E2.07705
G1 X25.484 Y22.499 E2.09371
G1 X25.556 Y22.638 E2.10107
G1 X25.648 Y22.815 E2.11045
G1 X25.653 Y22.82 E2.11078
G1 X25.551 Y22.839
G1 X24.936 Y22.96 E2.13022
G1 X25.074 Y23.73 E2.16701
G1 X24.745 Y23.637 E2.16809
G1 X23.869 Y23.388 E2.21091
G1 X21.778 Y15.064 E2.61452
G1 X13.771 Y5.98 E3.18397
G1 X13.764 Y5.972 E3.18447
G1 X13.639 Y6.096 E3.18895
G1 X9.001 Y3.806 E3.4322
G1 X7.081 Y2.858 E3.53289
G1 X9.222 Y2.858 E3.58455
G1 X9.223 Y2.858 E3.5846
G1 X11.242 Y2.858 E3.67955
G1 X15.482 Y2.867 E3.87894
G1 X20.374 Y5.954 E4.15097
G1 X20.707 Y6.164 E4.16948
G1 X21.246 Y5.804 E4.19996
G1 X21.18 Y5.416 E4.21847
G1 X20.845 Y3.451 E4.31221
G1 X20.746 Y2.868 E4.34002
G1 X21.337 Y2.868 E4.35719
G1 X21.338 Y2.868 E4.35724
G1 X23.939 Y2.868 E4.47956
G1 X24.447 Y2.868 E4.50345
G1 X27.626 Y2.867 E4.65294
G1 X28.102 Y2.867 E4.67533
G1 X28.19 Y3.355 E4.69865
G1 X27.923 Y3.748 E4.716
G1 X27.332 Y4.618 E4.76546
G1 X27.186 Y4.666 E4.77269
G1 X26.865 Y4.741 E4.78819
G1 X24.418 Y3.862 E4.91046
G1 X24.417 Y3.861 E4.91053
G1 X23.94 Y3.691 E4.92446
G0 F3600 X23.962 Y4.191
G0 X23.863 Y4.193
G0 X24.122 Y8.336
G0 X27.477 Y21.488
G0 X28.403 Y22.664
G0 X28.422 Y22.845
G1 F1800 X28.388 Y22.654 E4.93358
G1 X28.466 Y22.604
G1 X30.18 Y21.502 E5.02941
G1 X31.02 Y23.14 E5.11598
G1 X32.429 Y22.15 E5.19696
G1 X33.306 Y23.719 E5.28149
G1 X34.487 Y23.022 E5.34598
G1 X34.129 Y25.981 E5.48614
G1 X33.73 Y26.186 E5.50724
G1 X28.4 Y24.674 E5.76778
G1 X26.835 Y24.23 E5.84428
G1 X28.624 Y23.882 E5.88355
G1 X28.517 Y23.349 E5.90911
G1 X28.421 Y22.845 E5.93324
G1 X28.422 Y22.845
G0 F3600 X28.388 Y22.654
G0 X28.466 Y22.604
G0 X28.646 Y22.489
G0 X28.7 Y22.574
G0 X29.482 Y23.127
;TYPE:SKIN
G1 F1800 X29.797 Y22.925 E5.95084
G1 X30.467 Y24.232 E6.01991
G1 X29.657 Y24.002 E6.0595
G1 X29.487 Y23.155 E6.10013
G1 X29.482 Y23.127 E6.10147
G0 F3600 X30.981 Y24.377
G1 F1800 X32.1 Y23.591 E6.16577
G1 X32.833 Y24.903 E6.23645
G1 X30.981 Y24.377 E6.32699
G0 F3600 X33.113 Y24.982
G1 F1800 X33.264 Y24.893 E6.33523
G1 X33.249 Y25.021 E6.34129
G1 X33.113 Y24.982 E6.34794
G0 F3600 X28.651 Y22.509
G0 X27.103 Y20.101
G1 F1800 X26.56 Y20.017 E6.37378
G1 X25.903 Y20.119 E6.40505
G1 X25.306 Y20.425 E6.4366
G1 X24.838 Y20.893 E6.46772
G1 X24.53 Y21.489 E6.49927
G1 X24.485 Y21.778 E6.51302
G1 X22.679 Y14.589 E6.8616
G1 X13.812 Y4.53 E7.49219
G1 X13.443 Y4.896 E7.51663
G1 X11.321 Y3.848 E7.62793
G1 X15.196 Y3.857 E7.81015
G1 X20.723 Y7.344 E8.11747
G1 X22.329 Y6.271 E8.2083
G1 X21.918 Y3.858 E8.32341
G1 X22.957 Y3.858 E8.37227
G1 X23.197 Y9.058 E8.61707
G1 X26.303 Y9.992 E8.76959
G1 X26.729 Y13.037 E8.91418
G1 X26.741 Y13.043 E8.91482
G1 X27.418 Y16.585 E9.0844
G1 X26.834 Y16.884 E9.11525
G1 X27.103 Y20.101 E9.26706
G0 F3600 X25.484 Y19.827
G1 F1800 X24.114 Y18.457 E9.35818
G0 F3600 X23.639 Y16.568
G1 F1800 X26.604 Y19.533 E9.55536
G0 F3600 X26.474 Y17.989
G1 F1800 X23.164 Y14.679 E9.7755
G1 X22.988 Y14.503
G0 F3600 X26.403 Y13.675
G1 F1800 X20.4 Y7.672 E10.17473
G0 F3600 X21.504 Y7.362
G1 F1800 X22.724 Y8.582 E10.25587
G0 F3600 X22.655 Y7.099
G1 F1800 X22.352 Y6.796 E10.27602
G0 F3600 X23.874 Y9.731
G1 F1800 X26.126 Y11.984 E10.42582
G1 X26.302 Y12.16
G0 F3600 X26.737 Y15.424
G1 F1800 X16.57 Y5.256 E11.10201
G1 X16.394 Y5.08
G0 F3600 X14.263 Y4.363
G1 F1800 X26.466 Y16.566 E11.91358
G1 X26.642 Y16.742
G0 F3600 X31.204 Y17.591
G0 X32.53 Y18.388
G1 F1800 X31.763 Y17.621 E11.96459
G0 F3600 X28.272 Y15.964
G0 X24.122 Y8.336
G0 X23.916 Y3.659
G0 X27.544 Y3.503
G1 F1800 X27.358 Y3.317 E11.97696
G0 F3600 X26.897 Y4.27
G1 F1800 X25.944 Y3.317 E12.04034
G0 F3600 X24.697 Y3.484
G1 F1800 X24.53 Y3.317 E12.05144
G0 F3600 X24.855 Y2.958
;MESH:NONMESH
G0 F600 X24.855 Y2.958 Z0.8
G0 F3600 X24.854 Y2.968
G0 X23.916 Y3.659
G0 X24.122 Y8.336
G0 X27.879 Y17.232
;TIME_ELAPSED:11.329762
;LAYER:1
;TYPE:WALL-OUTER
;MESH:rex.stl
G1 F1800 X27.947 Y18.073 E12.11757
G1 X27.948 Y18.074 E12.11769
G1 X28.226 Y21.424 E12.38115
G1 X28.234 Y21.525 E12.38909
G1 X28.257 Y21.793 E12.41017
G1 X28.28 Y22.06 E12.43118
G1 X28.281 Y22.082 E12.43291
G1 X28.306 Y22.369 E12.45548
G1 X29.217 Y21.983 E12.50995
G1 X30.224 Y21.336 E12.60376
G1 X31.061 Y22.971 E12.74772
G1 X32.467 Y21.982 E12.88245
G1 X33.348 Y23.56 E13.0241
G1 X34.636 Y22.8 E13.14132
G1 X34.678 Y22.775 E13.14515
G1 X34.67 Y22.857 E13.14711
G1 X34.308 Y25.851 E13.38348
G1 X34.28 Y26.084 E13.40188
G1 X33.748 Y26.359 E13.44881
G1 X33.522 Y26.295 E13.46722
G1 X32.965 Y26.134 E13.51267
G1 X23.746 Y23.522 E14.26367
G1 X23.648 Y23.121 E14.29602
G1 X21.642 Y15.134 E14.94147
G1 X13.959 Y6.416 E15.85224
G1 X8.465 Y3.7 E16.33259
G1 X6.548 Y2.752 E16.5002
G1 X8.686 Y2.752 E16.58618
G1 X8.687 Y2.752 E16.58626
G1 X15.596 Y2.752 E17.12777
G1 X19.9 Y5.466 E17.52657
G1 X20.187 Y5.689 E17.55506
G1 X20.517 Y5.945 E17.58779
G1 X21.112 Y5.558 E17.64342
G1 X21.013 Y5.152 E17.67168
G1 X20.97 Y4.98 E17.68557
G1 X20.695 Y3.369 E17.81366
G1 X20.596 Y2.786 E17.86001
G1 X21.187 Y2.786 E17.88864
G1 X21.188 Y2.786 E17.88872
G1 X27.576 Y2.787 E18.38939
G1 X27.936 Y2.787 E18.41761
G1 X28.047 Y3.395 E18.46605
G1 X27.845 Y3.692 E18.48945
G1 X27.215 Y4.619 E18.57729
G1 X26.631 Y4.756 E18.62431
G1 X24.783 Y4.09 E18.77827
G1 X24.653 Y4.043 E18.7891
G1 X24.061 Y4.088 E18.83563
G1 X23.975 Y4.094 E18.84239
G1 X23.69 Y4.117 E18.8648
G1 X23.86 Y4.449 E18.88223
G1 X23.923 Y4.572 E18.89251
G1 X24.089 Y4.893 E18.92083
G1 X24.128 Y4.97 E18.92727
G1 X24.278 Y8.184 E19.17945
G1 X27.353 Y9.107 E19.43109
G1 X27.356 Y9.108 E19.43133
G1 X27.713 Y11.654 E19.63283
G1 X27.639 Y12.19 E19.67524
G1 X27.895 Y12.455 E19.70412
G1 X28.48 Y12.748 E19.7554
G1 X28.911 Y12.964 E19.79319
G1 X29.56 Y13.289 E19.85008
G1 X29.86 Y13.041 E19.88058
G1 X30.426 Y12.582 E19.9377
G1 X30.442 Y13.019 E19.94275
G1 X30.451 Y13.254 E19.94488
G1 X30.482 Y14.039 E20.00646
G1 X30.468 Y14.052 E20.00796
G1 X29.586 Y13.662 E20.05364
G1 X29.427 Y13.591 E20.05773
G1 X28.748 Y13.29 E20.07831
G1 X28.345 Y13.02 E20.0923
G1 X27.764 Y13.617 E20.15759
G1 X27.94 Y13.864 E20.17868
G1 X28.07 Y14.047 E20.19628
G1 X28.411 Y15.829 E20.33848
G1 X29.19 Y16.098 E20.40307
G1 X31.43 Y16.864 E20.58862
G1 X31.467 Y16.876 E20.59167
G1 X31.515 Y16.892 E20.59563
G1 X34.118 Y17.783 E20.81127
G1 X34.402 Y18.222 E20.85225
G1 X34.173 Y18.868 E20.90597
G1 X34.111 Y19.045 E20.92067
G1 X33.902 Y19.632 E20.96951
G1 X33.606 Y19.04 E21.02138
G1 X33.464 Y18.756 E21.04627
G1 X33.381 Y18.588 E21.05987
G1 X32.932 Y18.818 E21.09941
G1 X32.036 Y19.279 E21.17839
G1 X31.411 Y18.22 E21.27477
G1 X31.181 Y17.83 E21.31025
G1 X31.156 Y17.787 E21.31408
G1 X31.122 Y17.807 E21.31712
G1 X30.725 Y18.045 E21.3534
G1 X29.906 Y18.537 E21.42828
G1 X28.93 Y17.701 E21.529
G1 X28.651 Y17.576 E21.55296
G1 X28.649 Y17.575 E21.55314
G1 X27.879 Y17.232 E21.59076
G0 F5400 X27.919 Y17.73
G0 X27.821 Y17.737
G0 X25.636 Y21.851
G0 X25.674 Y22.437
G1 F1800 X25.809 Y22.697 E21.61373
G1 X26.013 Y22.901 E21.63634
G1 X26.272 Y23.034 E21.65916
G1 X26.56 Y23.08 E21.68202
G1 X26.849 Y23.034 E21.70495
G1 X27.108 Y22.9 E21.72781
G1 X27.311 Y22.697 E21.75031
G1 X27.445 Y22.438 E21.77187
G1 X27.476 Y22.238 E21.78469
G1 X27.491 Y22.149 E21.78905
G1 X27.445 Y21.861 E21.8076
G1 X27.312 Y21.602 E21.82761
G1 X27.24 Y21.53 E21.83531
G1 X27.108 Y21.398 E21.84994
G1 X26.848 Y21.263 E21.8729
G1 X26.56 Y21.219 E21.89574
G1 X26.274 Y21.263 E21.91842
G1 X26.013 Y21.397 E21.94141
G1 X25.808 Y21.602 E21.96414
G1 X25.674 Y21.863 E21.98713
G1 X25.63 Y22.149 E22.00981
G1 X25.674 Y22.437 E22.03265
G0 F5400 X25.809 Y22.697
G0 X25.956 Y22.844
G0 X25.886 Y22.914
G0 X24.733 Y22.773
;TYPE:SKIN
G1 F1800 X24.57 Y22.727 E22.04592
G1 X22.543 Y14.659 E22.69792
G1 X14.573 Y5.615 E23.64273
G1 X10.784 Y3.742 E23.97401
G1 X15.311 Y3.742 E24.32882
G1 X19.329 Y6.276 E24.70114
G1 X20.466 Y7.159 E24.81397
G1 X22.241 Y6.005 E24.97991
G1 X21.938 Y4.772 E25.07942
G1 X21.769 Y3.776 E25.1586
G1 X22.403 Y3.776 E25.20829
G1 X23.15 Y5.233 E25.33662
G1 X23.322 Y8.931 E25.62677
G1 X26.464 Y9.874 E25.88389
G1 X26.714 Y11.656 E26.02492
G1 X26.592 Y12.532 E26.09425
G1 X27.014 Y12.968 E26.1418
G1 X26.479 Y13.518 E26.20194
G1 X27.138 Y14.445 E26.29108
G1 X27.425 Y15.946 E26.41086
G1 X26.754 Y15.646 E26.46847
G1 X27.141 Y20.306 E26.83496
G1 X26.56 Y20.217 E26.88103
G1 X25.965 Y20.309 E26.92822
G1 X25.423 Y20.587 E26.97596
G1 X24.998 Y21.012 E27.02307
G1 X24.72 Y21.554 E27.07081
G1 X24.628 Y22.149 E27.118
G1 X24.72 Y22.748 E27.1655
G1 X24.733 Y22.773 E27.16771
G0 F5400 X27.824 Y23.649
G1 F1800 X29.681 Y22.862 E27.32579
G1 X29.84 Y22.759 E27.34064
G1 X30.699 Y24.436 E27.48831
G1 X32.138 Y23.425 E27.62615
G1 X32.978 Y24.928 E27.7611
G1 X33.458 Y24.645 E27.80478
G1 X33.388 Y25.225 E27.85056
G1 X27.824 Y23.649 E28.30381
G0 F5400 X27.632 Y22.629
G0 X24.716 Y9.819
G1 F1800 X26.206 Y12.028 E28.51265
G0 F5400 X25.941 Y13.424
G1 F1800 X23.204 Y9.365 E28.89635
G0 F5400 X22.868 Y8.867
G1 F1800 X21.586 Y6.967 E29.076
G0 F5400 X22.424 Y6.422
G1 F1800 X22.779 Y6.947 E29.12567
G0 F5400 X20.747 Y7.512
G1 F1800 X26.312 Y15.761 E29.90558
G1 X26.451 Y15.968
G0 F5400 X26.481 Y17.801
G1 F1800 X18.873 Y6.521 E30.97197
G1 X18.734 Y6.314
G0 F5400 X16.774 Y5.198
G1 F1800 X26.602 Y19.767 E32.34937
G0 F5400 X25.559 Y20.01
G1 F1800 X23.633 Y17.155 E32.6193
G1 X23.494 Y16.948
G0 F5400 X24.349 Y20.005
G1 F1800 X24.759 Y20.613 E32.67677
G0 F5400 X26.86 Y21.225
G0 X28.286 Y22.403
G0 X31.942 Y24.109
G1 F1800 X32.113 Y24.362 E32.70071
G0 F5400 X28.286 Y22.403
G0 X18.06 Y8.892
G1 F1800 X14.889 Y4.192 E33.14508
G0 F5400 X14.169 Y4.913
G1 F1800 X13.683 Y4.191 E33.21329
G0 F5400 X20.516 Y5.984
G0 X22.743 Y3.419
;TYPE:SKIN
G1 F1800 X22.927 Y3.235 E33.22349
G0 F5400 X23.163 Y3.706
G1 F1800 X23.634 Y3.235 E33.2496
G0 F5400 X23.929 Y3.647
G1 F1800 X24.341 Y3.235 E33.27243
G0 F5400 X24.694 Y3.589
G1 F1800 X25.048 Y3.235 E33.29205
G0 F5400 X25.221 Y3.769
G1 F1800 X25.754 Y3.236 E33.32159
G0 F5400 X26.462 Y3.236
G1 F1800 X25.741 Y3.956 E33.36152
G0 F5400 X26.261 Y4.144
G1 F1800 X27.169 Y3.236 E33.41184
G0 F5400 X27.041 Y4.07
G1 F1800 X26.877 Y4.235 E33.42096
G0 F5400 X24.658 Y4.004
G0 X23.656 Y4.098
G0 X24.247 Y8.208
G0 X28.285 Y16.262
G1 F1800 X27.829 Y16.718 E33.44623
G0 F5400 X28.318 Y16.936
G1 F1800 X28.811 Y16.443 E33.47355
G0 F5400 X29.337 Y16.624
G1 F1800 X28.806 Y17.155 E33.50298
G0 F5400 X29.268 Y17.4
G1 F1800 X29.864 Y16.804 E33.53601
G0 F5400 X30.392 Y16.983
G1 F1800 X29.649 Y17.726 E33.57719
G0 F5400 X30.32 Y17.763
G1 F1800 X30.919 Y17.163 E33.61041
G0 F5400 X31.69 Y17.807
;TYPE:SKIN
G1 F1800 X31.973 Y17.524 E33.64178
G0 F5400 X33.026 Y17.885
G1 F1800 X32.247 Y18.664 E33.72813
G0 F5400 X32.405 Y17.936
;MESH:NONMESH
G0 F600 X32.405 Y17.936 Z1.3
G0 F5400 X27.856 Y17.2
G0 X27.716 Y17.246
;TIME_ELAPSED:22.950479
;LAYER:2
;TYPE:WALL-OUTER
;MESH:rex.stl
G1 F1800 X27.785 Y18.087 E33.79427
G1 X28.067 Y21.47 E34.06034
G1 X28.079 Y21.614 E34.07166
G1 X28.082 Y21.657 E34.07504
G1 X28.117 Y22.077 E34.10807
G1 X28.143 Y22.381 E34.13199
G1 X28.316 Y22.308 E34.1467
G1 X29.468 Y21.822 E34.2447
G1 X30.224 Y21.335 E34.31518
G1 X30.264 Y21.414
G1 X31.061 Y22.971 E34.45228
G1 X32.467 Y21.982 E34.58701
G1 X33.099 Y23.114 E34.68862
G1 X33.348 Y23.56 E34.72866
G1 X33.788 Y23.301 E34.75435
G1 X34.047 Y23.148 E34.77793
G1 X34.308 Y22.994 E34.80168
G1 X34.742 Y22.737 E34.84121
G1 X34.664 Y23.596 E34.87752
G1 X34.628 Y23.898 E34.89815
G1 X34.532 Y24.693 E34.96091
G1 X34.378 Y24.925 E34.98273
G1 X34.272 Y25.316 E35.01449
G1 X34.367 Y25.665 E35.04283
G1 X34.37 Y25.678 E35.04388
G1 X34.404 Y25.745 E35.04977
G1 X34.358 Y26.122 E35.07954
G1 X34.241 Y26.192 E35.09022
G1 X33.752 Y26.445 E35.13337
G1 X33.739 Y26.442 E35.13442
G1 X31.259 Y25.732 E35.33661
G1 X23.696 Y23.588 E35.95273
G1 X23.301 Y21.988 E36.0819
G1 X21.588 Y15.162 E36.63349
G1 X13.923 Y6.462 E37.54227
G1 X8.397 Y3.729 E38.02546
G1 X7.56 Y3.315 E38.09865
G1 X6.897 Y2.971 E38.15719
G1 X6.896 Y2.97 E38.1573
G1 X6.476 Y2.752 E38.19439
G1 X6.897 Y2.752 E38.19708
G1 X7.56 Y2.752 E38.21637
G1 X8.494 Y2.752 E38.27401
G1 X15.739 Y2.752 E38.84185
G1 X19.268 Y4.977 E39.16883
G1 X20.188 Y5.691 E39.26011
G1 X20.516 Y5.945 E39.29262
G1 X21.112 Y5.558 E39.34832
G1 X21.014 Y5.155 E39.37637
G1 X20.868 Y4.557 E39.42461
G1 X20.614 Y3.073 E39.54262
G1 X20.6 Y2.992 E39.54906
G1 X20.575 Y2.847 E39.56059
G1 X21.447 Y2.846 E39.60864
G1 X21.53 Y2.846 E39.61479
G1 X27.084 Y2.847 E40.0501
G1 X27.476 Y2.847 E40.08083
G1 X27.58 Y3.422 E40.12662
G1 X27.36 Y3.746 E40.15167
G1 X26.909 Y4.41 E40.21458
G1 X26.355 Y4.54 E40.25918
G1 X26.25 Y4.573 E40.26781
G1 X24.633 Y3.991 E40.4025
G1 X24.237 Y4.02 E40.43362
G1 X23.483 Y4.074 E40.49287
G1 X23.828 Y4.746 E40.52737
G1 X24.173 Y5.418 E40.58658
G1 X24.299 Y8.115 E40.79819
G1 X26.897 Y8.894 E41.01078
G1 X27.451 Y9.049 E41.05586
G1 X27.735 Y11.079 E41.21652
G1 X27.578 Y12.255 E41.30951
G1 X27.88 Y12.573 E41.34388
G1 X27.881 Y12.574 E41.34399
G1 X28.051 Y12.659 E41.35889
G1 X28.277 Y12.772 E41.37869
G1 X28.885 Y13.077 E41.43201
G1 X29.316 Y13.294 E41.46983
G1 X30.079 Y12.674 E41.54688
G1 X30.102 Y13.263 E41.55935
G1 X30.128 Y13.923 E41.61112
G1 X30.115 Y13.935 E41.61251
G1 X29.21 Y13.535 E41.66101
G1 X28.757 Y13.334 E41.67206
G1 X28.6 Y13.228 E41.68691
G1 X28.565 Y13.205 E41.69019
G1 X28.188 Y12.951 E41.71123
G1 X27.606 Y13.548 E41.76169
G1 X27.869 Y13.919 E41.7944
G1 X28.134 Y14.294 E41.83039
G1 X28.424 Y15.796 E41.95029
G1 X31.478 Y16.842 E42.2033
G1 X31.479 Y16.842 E42.20338
G1 X31.48 Y16.842 E42.20346
G1 X34.129 Y17.75 E42.42294
G1 X34.458 Y18.25 E42.46985
G1 X34.232 Y18.889 E42.52297
G1 X34.194 Y18.997 E42.53195
G1 X33.941 Y19.71 E42.59124
G1 X33.606 Y19.04 E42.64996
G1 X33.432 Y18.691 E42.68052
G1 X33.381 Y18.588 E42.68912
G1 X32.932 Y18.818 E42.72866
G1 X32.036 Y19.279 E42.80764
G1 X31.411 Y18.22 E42.90401
G1 X31.157 Y17.788 E42.94329
G1 X31.156 Y17.787 E42.9434
G1 X31.155 Y17.788 E42.94351
G1 X30.725 Y18.045 E42.98278
G1 X29.906 Y18.537 E43.05766
G1 X29.138 Y17.879 E43.13693
G1 X28.487 Y17.589 E43.19278
