;FLAVOR:Marlin
;TIME:154
;Filament used: 0.106999m
;Layer height: 0.5
;MINX:4.167
;MINY:6.339
;MINZ:0.3
;MAXX:15.604
;MAXY:27.017
;MAXZ:22.3
;Generated with Cura_SteamEngine 4.6.0
M104 S200
M105
M109 S200
M82 ;absolute extrusion mode
G28 ;Home
G92 E0
G92 E0
;LAYER_COUNT:45
;LAYER:0
M107
;MESH:pug_lowpoly_flowalistik.STL
G0 F3600 X7.534 Y10.644 Z0.3
;TYPE:WALL-OUTER
G1 F951.4 X7.539 Y10.7 E0.00264
G1 X7.247 Y10.668 E0.01022
G1 X6.376 Y9.9 E0.06483
G1 X6.793 Y9.136 E0.10576
G1 X7.42 Y9.246 E0.1357
G1 X7.534 Y10.644 E0.19595
G0 F3600 X7.539 Y10.7
G0 X7.247 Y10.668
G0 X7.134 Y10.569
G0 X6.472 Y9.927
G0 X6.51 Y9.885
G0 X7.501 Y10.239
G0 X8.661 Y10.143
G0 X11.774 Y10.59
G0 X12.953 Y10.686
G0 X13.882 Y9.717
G0 X13.969 Y9.67
G1 F951.4 X14.061 Y9.837 E0.20492
G1 X14.095 Y9.899 E0.20824
G1 X13.42 Y10.495 E0.25059
G1 X13.224 Y10.668 E0.26288
G1 X12.933 Y10.7 E0.27665
G1 X12.937 Y10.646
G1 X12.952 Y10.457 E0.27844
G1 X13.002 Y9.851 E0.30704
G1 X13.052 Y9.245 E0.33563
G1 X13.677 Y9.136 E0.36547
G1 X13.969 Y9.67 E0.38907
G0 F3600 X14.061 Y9.837
G0 X14.095 Y9.899
G0 X13.915 Y10.057
G0 X13.408 Y10.198
G0 X13.079 Y11.855
G0 X10.906 Y16.587
G0 X10.236 Y17.56
G0 X10.154 Y22.881
G0 X10.076 Y22.943
G1 F951.4 X7.476 Y22.418 E0.51381
G1 X7.397 Y22.13 E0.52785
G1 X7.113 Y21.428 E0.56346
G1 X5.478 Y17.409 E0.7675
G1 X4.869 Y15.913 E0.84346
G1 X5.425 Y15.639 E0.87261
G1 X6.365 Y16.953 E0.93421
G1 X7.645 Y18.742 E1.03766
G1 X8.091 Y19.022 E1.06242
G1 X8.555 Y18.7 E1.08898
G1 X10.236 Y17.54 E1.18503
G1 X12.379 Y19.022 E1.30756
G1 X12.826 Y18.744 E1.33231
G1 X14.11 Y16.95 E1.43606
G1 X15.047 Y15.639 E1.51184
G1 X15.604 Y15.912 E1.54101
G1 X14.997 Y17.405 E1.6025
G1 X13.075 Y22.13 E1.84238
G1 X12.996 Y22.418 E1.85642
G1 X10.396 Y22.943 E1.98116
G1 X10.441 Y25.163 E2.08558
G1 X10.455 Y25.806 E2.11582
G1 X10.03 Y25.806 E2.1245
G1 X10.018 Y25.807 E2.12506
G1 X10.028 Y25.172 E2.13765
G1 X10.076 Y22.943 E2.17621
G0 F3600 X9.586 Y22.845
G0 X9.606 Y22.747
G0 X10.236 Y21.966
;TYPE:SKIN
G1 F951.4 X8.235 Y21.562 E2.27221
G1 X7.536 Y19.843 E2.35947
G1 X8.118 Y20.208 E2.39178
G1 X10.235 Y18.743 E2.51285
G1 X12.35 Y20.206 E2.63378
G1 X12.937 Y19.841 E2.66629
G1 X12.238 Y21.562 E2.75364
G1 X10.236 Y21.966 E2.84969
G0 F3600 X8.901 Y20.214
G1 F951.4 X10.18 Y21.494 E2.93478
G0 F3600 X11.375 Y21.275
G1 F951.4 X9.736 Y19.636 E3.04378
G1 X9.56 Y19.46
;MESH:NONMESH
G0 F600 X9.56 Y19.46 Z0.8
G0 F3600 X10.236 Y17.56
G0 X9.565 Y16.589
G0 X7.395 Y11.857
G0 X7.526 Y10.686
G0 X7.311 Y10.922
;TIME_ELAPSED:5.433062
;LAYER:1
;TYPE:WALL-OUTER
;MESH:pug_lowpoly_flowalistik.STL
G1 F958.6 X7.112 Y10.908 E3.05942
G1 X6.551 Y10.415 E3.11795
G1 X6.115 Y10.032 E3.16344
G1 X6.439 Y9.448 E3.21578
G1 X6.743 Y8.9 E3.2649
G1 X7.354 Y9.01 E3.31356
G1 X7.405 Y9.634 E3.35371
G1 X7.446 Y10.131 E3.39279
G1 X7.507 Y10.875 E3.43491
G1 X7.51 Y10.905
G1 X7.514 Y10.946 E3.43814
G1 X7.311 Y10.922 E3.44652
G0 F5400 X7.112 Y10.908
G0 X6.886 Y10.71
G0 X6.437 Y10.05
G0 X7.501 Y10.932
G0 X8.672 Y10.835
G0 X11.8 Y10.835
G0 X12.972 Y10.931
G0 X13.163 Y10.921
G1 F958.6 X12.959 Y10.945 E3.46262
G1 X12.961 Y10.907
G1 X12.964 Y10.875
G1 X13.025 Y10.134 E3.5209
G1 X13.067 Y9.632 E3.56038
G1 X13.118 Y9.007 E3.60953
G1 X13.729 Y8.899 E3.65816
G1 X14.033 Y9.448 E3.6984
G1 X14.356 Y10.033 E3.75078
G1 X13.921 Y10.416 E3.7962
G1 X13.363 Y10.907 E3.83825
G1 X13.163 Y10.921 E3.84826
G0 F5400 X12.959 Y10.945
G0 X12.961 Y10.907
G0 X12.964 Y10.875
G0 X12.982 Y10.651
G0 X13.136 Y9.774
G0 X13.154 Y9.776
G0 X12.972 Y10.931
G0 X13.11 Y12.099
G0 X10.906 Y16.305
G0 X10.236 Y17.276
G0 X8.029 Y18.883
G0 X8.027 Y18.784
G1 F958.6 X10.236 Y17.256 E4.05878
G1 X12.444 Y18.784 E4.26923
G1 X13.109 Y18.371 E4.33058
G1 X13.909 Y17.252 E4.4384
G1 X14.697 Y16.15 E4.54458
G1 X14.986 Y15.797 E4.58034
G1 X15.476 Y16.041 E4.62324
G1 X15.328 Y16.406 E4.64136
G1 X14.819 Y17.661 E4.73063
G1 X13.562 Y20.755 E4.99238
G1 X13.075 Y22.527 E5.13642
G1 X11.154 Y22.913 E5.28999
G1 X10.58 Y23.073 E5.33669
G1 X10.53 Y23.251 E5.35118
G1 X10.409 Y23.682 E5.38627
G1 X10.606 Y23.997 E5.41539
G1 X10.64 Y26.082 E5.57883
G1 X10.641 Y26.095 E5.57985
G1 X10.533 Y26.167 E5.59002
G1 X9.939 Y26.168 E5.63658
G1 X9.832 Y26.096 E5.64537
G1 X9.832 Y26.083
G1 X9.865 Y23.999 E5.77188
G1 X10.063 Y23.682 E5.80118
G1 X9.943 Y23.252 E5.81815
G1 X9.892 Y23.072 E5.82434
G1 X9.319 Y22.914 E5.87092
G1 X7.396 Y22.528 E6.02465
G1 X6.91 Y20.755 E6.16874
G1 X5.652 Y17.66 E6.43059
G1 X5.14 Y16.397 E6.5374
G1 X4.996 Y16.043 E6.56736
G1 X5.487 Y15.798 E6.61037
G1 X5.768 Y16.141 E6.63273
G1 X6.56 Y17.249 E6.7224
G1 X7.362 Y18.37 E6.83043
G1 X8.027 Y18.784 E6.89183
G0 F5400 X8.438 Y18.5
G0 X8.493 Y18.582
G0 X7.524 Y19.637
;TYPE:SKIN
G1 F958.6 X8.055 Y19.968 E6.94087
G1 X10.235 Y18.46 E7.14863
G1 X12.414 Y19.968 E7.35632
G1 X12.948 Y19.637 E7.40556
G1 X12.623 Y20.436 E7.47317
G1 X12.282 Y21.677 E7.57404
G1 X10.923 Y21.949 E7.68267
G1 X10.237 Y22.141 E7.7385
G1 X9.548 Y21.95 E7.79454
G1 X8.189 Y21.678 E7.90317
G1 X7.849 Y20.437 E8.00402
G1 X7.524 Y19.637 E8.0717
G0 F5400 X8.519 Y21.179
G1 F958.6 X10.505 Y19.192 E8.29188
G0 F5400 X11.341 Y19.771
G1 F958.6 X9.61 Y21.502 E8.48375
G0 F5400 X11.066 Y21.46
G1 F958.6 X12.177 Y20.349 E8.6069
;MESH:NONMESH
G0 F600 X12.177 Y20.349 Z1.3
G0 F5400 X10.236 Y17.276
G0 X9.565 Y16.306
G0 X7.366 Y12.101
G0 X7.501 Y10.932
G0 X7.394 Y10.192
;TIME_ELAPSED:10.801757
;LAYER:2
;TYPE:WALL-OUTER
;MESH:pug_lowpoly_flowalistik.STL
G1 F609.6 X7.427 Y10.587 E8.63797
G1 X7.474 Y11.171 E8.68389
G1 X7.451 Y11.253 E8.69056
G1 X6.949 Y11.218 E8.73
G1 X6.509 Y10.831 E8.76585
G1 X6.252 Y10.604 E8.79272
G1 X6.23 Y10.411 E8.80795
G1 X6.422 Y10.062 E8.83917
G1 X6.751 Y9.465 E8.89259
G1 X6.892 Y9.433 E8.90393
G1 X7.339 Y9.513 E8.93952
G1 X7.394 Y10.192 E8.9824
G0 F7200 X7.427 Y10.587
G0 X7.435 Y10.69
G0 X7.101 Y10.018
G0 X8.593 Y10.571
G0 X11.841 Y11.027
G0 X13.021 Y11.122
G0 X13.078 Y10.191
G1 F609.6 X13.133 Y9.513 E9.03571
G1 X13.581 Y9.434 E9.07137
G1 X13.721 Y9.465 E9.0826
G1 X14.05 Y10.061 E9.12546
G1 X14.243 Y10.411 E9.15678
G1 X14.221 Y10.603 E9.17193
G1 X13.962 Y10.831 E9.19897
G1 X13.523 Y11.218 E9.24484
G1 X13.021 Y11.252 E9.28428
G1 X12.998 Y11.17 E9.29095
G1 X13.045 Y10.586 E9.3268
G1 X13.078 Y10.191 E9.35787
G0 F7200 X13.118 Y9.693
G0 X13.068 Y10.35
G0 X13.163 Y10.359
G0 X13.111 Y12.413
G0 X10.907 Y15.953
G0 X10.236 Y16.924
G0 X7.949 Y18.586
G0 X7.947 Y18.487
G1 F609.6 X10.236 Y16.904 E9.576
G1 X12.524 Y18.487 E9.79406
G1 X13.462 Y17.904 E9.88062
G1 X13.672 Y17.61 E9.90894
G1 X14.132 Y16.966 E9.97097
G1 X14.475 Y16.548 E10.01335
G1 X15.028 Y16.92 E10.06559
G1 X14.886 Y17.271 E10.08597
G1 X14.589 Y18.004 E10.14219
G1 X14.22 Y18.914 E10.21916
G1 X14.197 Y18.938 E10.22176
G1 X13.174 Y22.662 E10.52445
G1 X12.001 Y22.898 E10.61823
G1 X10.401 Y23.341 E10.74835
G1 X10.379 Y23.425 E10.75516
G1 X10.24 Y23.935 E10.79659
G1 X10.343 Y24.333 E10.82881
G1 X10.358 Y24.391 E10.8335
G1 X10.484 Y24.923 E10.87636
G1 X10.514 Y25.048 E10.88643
G1 X10.857 Y25.598 E10.93723
G1 X10.868 Y26.269 E10.98983
G1 X10.344 Y26.619 E11.03922
G1 X10.128 Y26.62 E11.05615
G1 X9.604 Y26.268 E11.10563
G1 X9.615 Y25.599 E11.15807
G1 X9.956 Y25.049 E11.20879
G1 X9.986 Y24.922
G1 X10.113 Y24.393 E11.22529
G1 X10.129 Y24.331
G1 X10.234 Y23.937 E11.22958
G1 X10.095 Y23.425 E11.23688
G1 X10.072 Y23.342
G1 X8.472 Y22.899 E11.367
G1 X7.297 Y22.664 E11.46092
G1 X6.302 Y19.037 E11.7557
G1 X5.885 Y18.008 E11.84272
G1 X5.587 Y17.272 E11.90495
G1 X5.444 Y16.919 E11.93481
G1 X5.996 Y16.547 E11.98698
G1 X6.34 Y16.966 E12.02012
G1 X6.802 Y17.613 E12.07662
G1 X7.009 Y17.903 E12.10454
G1 X7.947 Y18.487 E12.19115
G0 F7200 X8.358 Y18.203
G0 X8.923 Y19.027
;MESH:NONMESH
G0 F600 X8.923 Y19.027 Z1.8
G0 F7200 X10.236 Y16.924
G0 X9.564 Y15.954
G0 X7.372 Y12.414
G0 X7.44 Y11.237
G0 X7.258 Y10.477
;TIME_ELAPSED:16.151432
;LAYER:3
;TYPE:WALL-OUTER
;MESH:pug_lowpoly_flowalistik.STL
G1 F600 X7.288 Y10.47 E12.19356
G1 X7.395 Y10.889 E12.22745
G1 X7.42 Y11.193 E12.24628
G1 X7.314 Y11.564 E12.27652
G1 X6.828 Y11.529 E12.31471
G1 X6.798 Y11.265 E12.3244
G1 X6.764 Y10.962 E12.33977
G1 X6.721 Y10.598 E12.35624
G1 X7.258 Y10.477 E12.39938
G0 F7200 X7.288 Y10.47
G0 X7.395 Y10.889
G0 X7.398 Y10.926
G0 X7.298 Y10.932
G0 X8.579 Y11.098
G0 X11.891 Y11.097
G0 X13.07 Y11.19
G0 X13.71 Y10.962
G1 F600 X13.676 Y11.261 E12.42297
G1 X13.645 Y11.53 E12.44419
G1 X13.158 Y11.563 E12.48245
G1 X13.051 Y11.191 E12.50161
G1 X13.075 Y10.891 E12.51653
G1 X13.184 Y10.47 E12.54959
G1 X13.211 Y10.476
G1 X13.751 Y10.597 E12.58454
G1 X13.71 Y10.962 E12.60107
G0 F7200 X13.676 Y11.261
G0 X13.654 Y11.46
G0 X13.554 Y11.436
G0 X12.941 Y12.745
G0 X10.907 Y15.599
G0 X10.236 Y16.57
G0 X12.602 Y18.289
G0 X12.604 Y18.19
G1 F600 X13.335 Y17.734 E12.6686
G1 X14.491 Y18.371 E12.77205
G1 X14.209 Y19.392 E12.85507
G1 X14.208 Y19.393 E12.85518
G1 X13.273 Y22.799 E13.13201
G1 X12.849 Y22.883 E13.16589
G1 X10.342 Y23.575 E13.36973
G1 X10.236 Y23.604 E13.37834
G1 X10.074 Y23.56 E13.3915
G1 X7.623 Y22.883 E13.59079
G1 X7.199 Y22.799 E13.62467
G1 X5.982 Y18.372 E13.98452
G1 X7.137 Y17.736 E14.08786
G1 X7.868 Y18.189 E14.15526
G1 X10.236 Y16.55 E14.38098
G1 X12.604 Y18.19 E14.60675
G0 F7200 X13.028 Y17.926
G0 X13.078 Y18.011
G0 X10.236 Y23.584
G0 X9.906 Y24.96
G0 X9.81 Y24.937
G1 F600 X9.854 Y24.772 E14.62013
G1 X10.08 Y24.519 E14.64672
G1 X10.192 Y24.393 E14.65993
G1 X10.236 Y24.343 E14.66515
G1 X10.28 Y24.392 E14.66656
G1 X10.341 Y24.461 E14.6696
G1 X10.414 Y24.543 E14.67821
G1 X10.619 Y24.772 E14.7023
G1 X10.657 Y24.935 E14.7129
G1 X10.703 Y25.126 E14.7283
G1 X10.991 Y26.323 E14.82479
G1 X10.989 Y26.391 E14.83012
G1 X10.988 Y26.437 E14.83373
G1 X10.722 Y26.691 E14.86256
G1 X10.274 Y26.992 E14.90486
G1 X10.236 Y27.017 E14.90842
G1 X10.198 Y26.992 E14.91199
G1 X9.751 Y26.692 E14.95418
G1 X9.484 Y26.437 E14.98312
G1 X9.483 Y26.391 E14.98673
G1 X9.481 Y26.32 E14.99229
G1 X9.725 Y25.291 E15.07518
G1 X9.809 Y24.937 E15.1037
G1 X9.81 Y24.937 E15.10377
G0 F7200 X9.854 Y24.772
G0 X10.074 Y24.526
G0 X9.753 Y25.446
;MESH:NONMESH
G0 F600 X9.753 Y25.446 Z2.3
G0 F7200 X9.788 Y25.456
G0 X10.236 Y24.363
G0 X8.761 Y24.392
G0 X6.272 Y23.796
G0 X4.626 Y17.799
G0 X7.223 Y12.724
G0 X7.303 Y11.548
G0 X7.272 Y10.795
;TIME_ELAPSED:20.772833
;LAYER:4
;TYPE:WALL-OUTER
;MESH:pug_lowpoly_flowalistik.STL
G1 F600 X7.298 Y10.787 E15.10591
G1 X7.303 Y10.809 E15.10625
G1 X7.403 Y11.241 E15.12776
G1 X7.27 Y11.706 E15.16567
G1 X7.232 Y11.704
G1 X6.98 Y11.685 E15.18469
G1 X6.936 Y11.294 E15.19459
G1 X6.892 Y10.905 E15.20715
G1 X7.025 Y10.867 E15.20776
G1 X7.272 Y10.795 E15.21934
G0 F7200 X7.298 Y10.787
G0 X7.303 Y10.809
G0 X7.403 Y11.241
G0 X7.401 Y11.248
G0 X7.296 Y11.221
G0 X8.536 Y10.973
G0 X11.937 Y10.973
G0 X13.089 Y11.24
G0 X13.241 Y11.703
G1 F600 X13.202 Y11.706 E15.2224
G1 X13.07 Y11.24 E15.26036
G1 X13.169 Y10.81 E15.28942
G1 X13.175 Y10.787 E15.29109
G1 X13.199 Y10.794
G1 X13.446 Y10.866 E15.29652
G1 X13.58 Y10.905 E15.29722
G1 X13.538 Y11.291 E15.30964
G1 X13.494 Y11.685 E15.31973
G1 X13.241 Y11.703 E15.33691
G0 F7200 X13.202 Y11.706
G0 X13.077 Y11.263
G0 X13.173 Y11.238
G0 X13.298 Y12.866
G0 X10.914 Y15.252
G0 X10.236 Y16.218
G0 X12.684 Y17.993
G0 X12.686 Y17.893
G1 F600 X13.238 Y17.548 E15.38793
G1 X14.643 Y18.322 E15.51366
G1 X13.364 Y22.961 E15.89082
G1 X10.236 Y23.824 E16.14514
G1 X7.109 Y22.961 E16.39939
G1 X5.829 Y18.323 E16.77649
G1 X7.234 Y17.549 E16.90222
G1 X7.788 Y17.893 E16.95333
G1 X10.236 Y16.198 E17.1867
G1 X12.686 Y17.893 E17.4202
G0 F7200 X13.11 Y17.628
G0 X13.162 Y17.713
G0 X10.235 Y23.805
G0 X10.236 Y24.86
G0 X9.772 Y25.357
G1 F600 X10.181 Y24.901 E17.46821
G1 X10.236 Y24.839 E17.4747
G1 X10.29 Y24.899
G1 X10.699 Y25.356 E17.50762
G1 X10.765 Y25.423 E17.51367
G1 X10.738 Y26.411 E17.59113
G1 X10.236 Y26.89 E17.64552
G1 X9.733 Y26.411 E17.69995
G1 X9.707 Y25.422 E17.77482
G1 X9.772 Y25.357 E17.77813
G0 F7200 X10.106 Y24.985
G0 X9.76 Y25.622
;MESH:NONMESH
G0 F600 X9.76 Y25.622 Z2.8
G0 F7200 X9.813 Y25.622
G0 X8.875 Y24.636
G0 X6.5 Y24.001
G0 X4.472 Y17.751
G0 X7.176 Y12.867
G0 X7.259 Y11.69
G0 X7.372 Y11.416
;TIME_ELAPSED:25.219351
;LAYER:5
;TYPE:WALL-OUTER
;MESH:pug_lowpoly_flowalistik.STL
G1 F600 X7.27 Y11.769 E17.80692
G1 X7.247 Y11.768 E17.80873
G1 X6.968 Y11.747 E17.83066
G1 X6.937 Y11.465 E17.83709
G1 X6.923 Y11.339
G1 X6.876 Y10.926 E17.85836
G1 X7.015 Y10.886 E17.86755
G1 X7.202 Y10.832 E17.87816
G1 X7.288 Y10.807 E17.88146
G1 X7.317 Y10.798 E17.88362
G1 X7.322 Y10.822
G1 X7.429 Y11.281 E17.90262
G1 X7.372 Y11.416 E17.90453
G0 F7200 X7.27 Y11.769
G0 X7.247 Y11.768
G0 X7.137 Y11.76
G0 X7.145 Y11.66
G0 X8.561 Y11.013
G0 X11.911 Y11.011
G0 X13.064 Y11.278
G0 X13.102 Y11.416
G1 F600 X13.045 Y11.279 E17.91616
G1 X13.15 Y10.823 E17.95284
G1 X13.156 Y10.798 E17.95485
G1 X13.18 Y10.805
G1 X13.271 Y10.831
G1 X13.459 Y10.886 E17.9641
G1 X13.597 Y10.926 E17.96529
G1 X13.552 Y11.335 E17.97978
G1 X13.537 Y11.464 E17.98437
G1 X13.505 Y11.747 E17.99882
G1 X13.227 Y11.767 E18.01852
G1 X13.203 Y11.769
G1 X13.102 Y11.416 E18.0315
G0 F7200 X13.045 Y11.279
G0 X13.124 Y10.936
G0 X13.221 Y10.959
G0 X11.021 Y16.412
G0 X12.764 Y17.695
G0 X12.766 Y17.596
G1 F600 X13.14 Y17.362 E18.06608
G1 X14.795 Y18.274 E18.21418
G1 X13.942 Y21.37 E18.46588
G1 X13.459 Y22.134 E18.53672
G1 X13.393 Y22.724 E18.58326
G1 X13.364 Y22.783 E18.58841
G1 X12.019 Y23.549 E18.70972
G1 X10.236 Y24.041 E18.85469
G1 X8.456 Y23.55 E18.99941
G1 X7.108 Y22.782 E19.12101
G1 X7.079 Y22.724 E19.12609
G1 X7.013 Y22.134 E19.17262
G1 X6.531 Y21.371 E19.24336
G1 X5.677 Y18.274 E19.49515
G1 X7.332 Y17.363 E19.64322
G1 X7.708 Y17.595 E19.67785
G1 X9.439 Y16.399 E19.84275
G1 X10.237 Y15.743 E19.92372
G1 X11.033 Y16.397 E20.00447
G1 X12.766 Y17.596 E20.16963
G0 F7200 X13.14 Y17.362
G0 X13.191 Y17.39
G0 X12.744 Y18.595
G0 X10.236 Y24.021
G0 X10.236 Y25.306
G0 X10.138 Y26.397
G0 X10.074 Y26.473
G1 F600 X9.982 Y26.404 E20.17865
G1 X9.97 Y25.9 E20.21816
G1 X9.969 Y25.887 E20.21918
G1 X9.948 Y25.634 E20.23908
G1 X9.943 Y25.582 E20.24317
G1 X10.068 Y25.456 E20.25708
G1 X10.236 Y25.286 E20.27582
G1 X10.405 Y25.458 E20.28357
G1 X10.529 Y25.584 E20.28988
G1 X10.526 Y25.63
G1 X10.504 Y25.886 E20.30114
G1 X10.504 Y25.901
G1 X10.49 Y26.403 E20.32161
G1 X10.426 Y26.455 E20.32607
G1 X10.368 Y26.501
G1 X10.236 Y26.627 E20.32851
G1 X10.074 Y26.473 E20.33353
G0 F7200 X9.982 Y26.404
G0 X9.973 Y26.019
;MESH:NONMESH
G0 F600 X9.973 Y26.019 Z3.3
G0 F7200 X10.073 Y26.018
G0 X9.016 Y24.892
G0 X8.006 Y24.634
G0 X6.22 Y23.615
G0 X5.455 Y21.848
G0 X4.32 Y17.701
G0 X7.175 Y12.93
G0 X7.259 Y11.753
G0 X7.333 Y11.611
;TIME_ELAPSED:29.543553
;LAYER:6
;TYPE:WALL-OUTER
;MESH:pug_lowpoly_flowalistik.STL
G1 F600 X7.269 Y11.832 E20.35156
G1 X6.957 Y11.81 E20.37607
G1 X6.94 Y11.656 E20.37861
G1 X6.91 Y11.385 E20.39653
G1 X6.86 Y10.949 E20.43092
G1 X6.999 Y10.909 E20.44073
G1 X7.117 Y10.874 E20.4487
G1 X7.305 Y10.819 E20.4623
G1 X7.335 Y10.81 E20.46476
G1 X7.341 Y10.837
G1 X7.454 Y11.323 E20.48622
G1 X7.333 Y11.611 E20.49901
G0 F7200 X7.269 Y11.832
G0 X6.999 Y11.813
G0 X7.046 Y11.709
G0 X8.586 Y11.053
G0 X11.885 Y11.055
G0 X13.038 Y11.322
G0 X13.141 Y11.613
G1 F600 X13.019 Y11.323 E20.52367
G1 X13.131 Y10.838 E20.56268
G1 X13.138 Y10.811 E20.56487
G1 X13.164 Y10.818
G1 X13.356 Y10.874 E20.56556
G1 X13.471 Y10.908 E20.56972
G1 X13.612 Y10.949 E20.5778
G1 X13.565 Y11.383 E20.5945
G1 X13.534 Y11.656 E20.60421
G1 X13.516 Y11.81 E20.60774
G1 X13.203 Y11.832 E20.6308
G1 X13.141 Y11.613 E20.63758
G0 F7200 X13.019 Y11.323
G0 X13.06 Y11.142
G0 X13.158 Y11.165
G0 X11.841 Y16.629
G0 X12.845 Y17.399
G0 X12.847 Y17.3
G1 F600 X13.044 Y17.176 E20.65583
G1 X14.948 Y18.226 E20.82624
G1 X14.548 Y19.677 E20.94421
G1 X13.627 Y21.133 E21.07924
G1 X13.5 Y22.259 E21.16806
G1 X13.346 Y22.576 E21.19568
G1 X10.537 Y24.175 E21.44901
G1 X10.235 Y24.259 E21.47358
G1 X9.934 Y24.176 E21.49805
G1 X7.127 Y22.577 E21.75125
G1 X6.972 Y22.259 E21.77898
G1 X6.845 Y21.133 E21.86779
G1 X5.925 Y19.678 E22.00271
G1 X5.524 Y18.227 E22.1207
G1 X7.431 Y17.176 E22.29136
G1 X7.628 Y17.298 E22.30952
G1 X8.619 Y16.615 E22.40386
G1 X10.236 Y15.286 E22.56791
G1 X11.853 Y16.614 E22.7319
G1 X12.847 Y17.3 E22.82656
