;FLAVOR:Marlin
;TIME:366
;Filament used: 0.447633m
;Layer height: 0.5
;MINX:3.758
;MINY:6.529
;MINZ:0.3
;MAXX:38.361
;MAXY:39.742
;MAXZ:18.8
;Generated with Cura_SteamEngine 4.6.0
M104 S200
M105
M109 S200
M82 ;absolute extrusion mode
G28 ;Home
G92 E0
G92 E0
;LAYER_COUNT:38
;LAYER:0
M107
;MESH:Roman_Terrace_Garden.stl
G0 F3600 X32.089 Y13.958 Z0.3
;TYPE:WALL-OUTER
G1 F1800 X35.839 Y13.958 E0.17635
G1 X35.839 Y20.708 E0.49378
G1 X37.775 Y20.708 E0.58482
G1 X37.903 Y20.715 E0.59085
G1 X38.08 Y20.773 E0.59961
G1 X38.114 Y20.794 E0.60149
G1 X38.238 Y20.918 E0.60973
G1 X38.318 Y21.075 E0.61802
G1 X38.331 Y21.126 E0.6205
G1 X38.339 Y21.233 E0.62554
G1 X38.339 Y38.983 E1.46026
G1 X38.329 Y39.279 E1.47419
G1 X38.279 Y39.433 E1.4818
G1 X38.188 Y39.557 E1.48903
G1 X38.065 Y39.647 E1.4962
G1 X37.903 Y39.699 E1.5042
G1 X37.706 Y39.708 E1.51348
G1 X4.61 Y39.708 E3.06986
G1 X4.248 Y39.697 E3.08689
G1 X4.203 Y39.686 E3.08907
G1 X4.031 Y39.598 E3.09816
G1 X3.999 Y39.571 E3.10013
G1 X3.899 Y39.433 E3.10814
G1 X3.845 Y39.267 E3.11635
G1 X3.839 Y39.183 E3.12031
G1 X3.839 Y21.378 E3.95762
G1 X3.848 Y21.137 E3.96896
G1 X3.898 Y20.984 E3.97653
G1 X4.001 Y20.843 E3.98474
G1 X4.032 Y20.817 E3.98664
G1 X4.186 Y20.739 E3.99476
G1 X4.379 Y20.708 E4.00395
G1 X6.089 Y20.708 E4.08437
G1 X6.089 Y13.958 E4.40179
G1 X9.924 Y13.958 E4.58214
G1 X9.924 Y12.934 E4.6303
G1 X21.007 Y6.535 E5.23212
G1 X32.089 Y12.934 E5.83391
G1 X32.089 Y13.958 E5.88206
G0 F3600 X32.589 Y13.958
G0 X32.589 Y14.058
G0 X31.099 Y13.506
;TYPE:SKIN
G1 F1800 X31.099 Y14.948 E5.94988
G1 X34.849 Y14.948 E6.12623
G1 X34.849 Y21.698 E6.44365
G1 X37.349 Y21.698 E6.56122
G1 X37.349 Y38.718 E7.36161
G1 X4.829 Y38.718 E8.89091
G1 X4.829 Y21.698 E9.6913
G1 X7.079 Y21.698 E9.79711
G1 X7.079 Y14.948 E10.11453
G1 X10.914 Y14.948 E10.29488
G1 X10.914 Y13.506 E10.36269
G1 X21.007 Y7.677 E10.9108
G1 X31.099 Y13.506 E11.45886
G0 F3600 X34.397 Y16.013
G1 F1800 X33.782 Y15.397 E11.4998
G0 F3600 X32.368 Y15.397
G1 F1800 X34.397 Y17.427 E11.63477
G0 F3600 X34.397 Y18.841
G1 F1800 X30.954 Y15.397 E11.86378
G0 F3600 X30.648 Y15.092
G1 F1800 X27.508 Y11.952 E12.07261
G1 X27.332 Y11.776
G0 F3600 X24.16 Y10.018
G1 F1800 X34.397 Y20.255 E12.75342
G0 F3600 X34.397 Y21.669
G1 F1800 X20.954 Y8.226 E13.64746
G0 F3600 X20.057 Y8.744
G1 F1800 X36.898 Y25.585 E14.76747
G0 F3600 X36.898 Y24.171
G1 F1800 X34.875 Y22.147 E14.90205
G0 F3600 X36.29 Y22.147
G1 F1800 X36.898 Y22.756 E14.94252
G0 F3600 X36.898 Y26.999
G1 F1800 X19.161 Y9.261 E16.12215
G0 F3600 X18.265 Y9.779
G1 F1800 X36.898 Y28.413 E17.36138
G0 F3600 X36.898 Y29.827
G1 F1800 X17.368 Y10.297 E18.66023
G0 F3600 X16.472 Y10.815
G1 F1800 X36.898 Y31.242 E20.0187
G0 F3600 X36.898 Y32.656
G1 F1800 X15.575 Y11.332 E21.43683
G0 F3600 X14.679 Y11.851
G1 F1800 X36.898 Y34.07 E22.91451
G0 F3600 X36.898 Y35.484
G1 F1800 X13.782 Y12.368 E24.45185
G0 F3600 X12.886 Y12.886
G1 F1800 X36.898 Y36.898 E26.04878
G0 F3600 X36.852 Y38.267
G1 F1800 X11.989 Y13.403 E27.70233
G0 F3600 X11.363 Y14.192
G1 F1800 X35.438 Y38.267 E29.30345
G0 F3600 X34.024 Y38.267
G1 F1800 X11.154 Y15.397 E30.82443
G0 F3600 X9.74 Y15.397
G1 F1800 X32.61 Y38.267 E32.34541
G0 F3600 X31.196 Y38.267
G1 F1800 X8.326 Y15.397 E33.86638
G0 F3600 X7.528 Y16.013
G1 F1800 X29.781 Y38.267 E35.34636
G0 F3600 X28.367 Y38.267
G1 F1800 X7.528 Y17.428 E36.73227
G0 F3600 X7.528 Y18.842
G1 F1800 X26.953 Y38.267 E38.02413
G0 F3600 X25.539 Y38.267
G1 F1800 X7.528 Y20.256 E39.22196
G0 F3600 X7.528 Y21.67
G1 F1800 X24.125 Y38.267 E40.32575
G0 F3600 X22.71 Y38.267
G1 F1800 X6.59 Y22.147 E41.39782
G0 F3600 X5.278 Y22.249
G1 F1800 X21.296 Y38.267 E42.4631
G0 F3600 X19.882 Y38.267
G1 F1800 X5.278 Y23.663 E43.43434
G0 F3600 X5.278 Y25.077
G1 F1800 X18.468 Y38.267 E44.31155
G0 F3600 X17.054 Y38.267
G1 F1800 X5.278 Y26.491 E45.09472
G0 F3600 X5.278 Y27.905
G1 F1800 X15.639 Y38.267 E45.78381
G0 F3600 X14.225 Y38.267
G1 F1800 X5.278 Y29.32 E46.37883
G0 F3600 X5.278 Y30.734
G1 F1800 X12.811 Y38.267 E46.87982
G0 F3600 X11.397 Y38.267
G1 F1800 X5.278 Y32.148 E47.28677
G0 F3600 X5.278 Y33.562
G1 F1800 X9.982 Y38.267 E47.59964
G0 F3600 X8.568 Y38.267
G1 F1800 X5.278 Y34.977 E47.81844
G0 F3600 X5.278 Y36.391
G1 F1800 X7.154 Y38.267 E47.94321
G0 F3600 X5.74 Y38.267
G1 F1800 X5.278 Y37.805 E47.97393
;MESH:NONMESH
G0 F600 X5.278 Y37.805 Z0.8
G0 F3600 X12.057 Y21.19
;TIME_ELAPSED:36.575625
;LAYER:1
;TYPE:WALL-OUTER
;MESH:Roman_Terrace_Garden.stl
G1 F1800 X12.186 Y21.001 E47.99187
G1 X12.385 Y20.708 E48.01963
G1 X14.516 Y20.708 E48.18665
G1 X14.912 Y20.718 E48.2177
G1 X15.082 Y20.774 E48.23173
G1 X15.112 Y20.792 E48.23447
G1 X15.255 Y20.935 E48.25032
G1 X15.273 Y20.964 E48.25299
G1 X15.332 Y21.146 E48.26799
G1 X15.339 Y21.238 E48.27522
G1 X15.339 Y22.207 E48.35117
G1 X15.338 Y22.207
G1 X15.338 Y25.242 E48.58904
G1 X14.966 Y25.437 E48.62196
G1 X14.958 Y26.032 E48.6686
G1 X15.303 Y26.226 E48.69962
G1 X15.332 Y26.322 E48.70748
G1 X15.338 Y26.323 E48.70796
G1 X15.338 Y30.972 E49.07234
G1 X15.008 Y31.157 E49.10199
G1 X15.004 Y31.739 E49.1476
G1 X15.338 Y31.931 E49.1778
G1 X15.338 Y36.723 E49.55338
G1 X14.992 Y36.918 E49.58451
G1 X15 Y37.51 E49.63092
G1 X15.338 Y37.691 E49.66097
G1 X15.338 Y39.708 E49.81905
G1 X4.724 Y39.708 E50.65095
G1 X4.249 Y39.696 E50.68819
G1 X4.202 Y39.685 E50.69197
G1 X4.048 Y39.607 E50.7055
G1 X3.925 Y39.483 E50.71919
G1 X3.905 Y39.45 E50.72222
G1 X3.845 Y39.267 E50.73731
G1 X3.839 Y39.183 E50.74391
G1 X3.839 Y21.246 E52.14977
G1 X3.871 Y21.041 E52.16603
G1 X3.89 Y20.996 E52.16986
G1 X4 Y20.844 E52.18456
G1 X4.034 Y20.815 E52.18807
G1 X4.185 Y20.739 E52.20132
G1 X4.379 Y20.708 E52.21671
G1 X6.089 Y20.708 E52.35074
G1 X6.089 Y13.958 E52.87979
G1 X9.71 Y13.958 E53.16359
G1 X9.924 Y13.958 E53.18036
G1 X9.924 Y13.263 E53.23483
G1 X9.924 Y12.934 E53.26062
G1 X10.21 Y12.769 E53.2865
G1 X20.72 Y6.701 E54.23768
G1 X21.007 Y6.535 E54.26367
G1 X21.293 Y6.7 E54.28955
G1 X31.802 Y12.768 E55.24066
G1 X32.089 Y12.934 E55.26665
G1 X32.089 Y13.263 E55.29243
G1 X32.089 Y13.958 E55.3469
G1 X35.839 Y13.958 E55.64082
G1 X35.839 Y20.708 E56.16987
G1 X37.627 Y20.708 E56.31
G1 X37.911 Y20.718 E56.33228
G1 X38.075 Y20.77 E56.34576
G1 X38.12 Y20.798 E56.34992
G1 X38.239 Y20.917 E56.36311
G1 X38.319 Y21.077 E56.37713
G1 X38.331 Y21.125 E56.381
G1 X38.339 Y21.233 E56.38949
G1 X38.339 Y39.168 E57.79519
G1 X38.308 Y39.362 E57.81059
G1 X38.239 Y39.497 E57.82247
G1 X38.114 Y39.623 E57.83638
G1 X38.085 Y39.64 E57.83902
G1 X37.912 Y39.697 E57.85329
G1 X37.342 Y39.708 E57.89798
G1 X26.59 Y39.708 E58.74069
G1 X26.59 Y37.713 E58.89705
G1 X26.975 Y37.498 E58.93161
G1 X26.961 Y36.895 E58.97889
G1 X26.59 Y36.71 E59.01138
G1 X26.59 Y31.956 E59.38399
G1 X26.97 Y31.727 E59.41876
G1 X26.945 Y31.135 E59.4652
G1 X26.59 Y30.959 E59.49626
G1 X26.59 Y28.208 E59.71187
G1 X26.84 Y28.208 E59.73147
G1 X26.84 Y26.106 E59.89622
G1 X27.008 Y25.997 E59.91191
G1 X26.97 Y25.412 E59.95786
G1 X26.84 Y25.35 E59.96915
G1 X26.84 Y22.221 E60.21439
G1 X26.839 Y22.221 E60.21447
G1 X26.839 Y21.239 E60.29143
G1 X26.846 Y21.145 E60.29882
G1 X26.898 Y20.984 E60.31208
G1 X26.989 Y20.86 E60.32414
G1 X27.115 Y20.768 E60.33637
G1 X27.266 Y20.719 E60.34881
G1 X27.856 Y20.708 E60.39506
G1 X29.604 Y20.708 E60.53206
G1 X29.8 Y21.055 E60.5633
G1 X30.392 Y21.047 E60.6097
G1 X30.572 Y20.708 E60.63978
G1 X31.517 Y20.708 E60.71385
G1 X31.517 Y13.958 E61.23571
G1 X31.517 Y13.263 E61.26687
G1 X21.007 Y7.196 E61.81046
G1 X10.496 Y13.263 E62.35362
G1 X10.496 Y13.958 E62.38478
G1 X10.496 Y14.172 E62.39902
G1 X10.495 Y20.208 E62.8721
G1 X10.495 Y20.708 E62.91129
G1 X10.995 Y20.708 E62.93663
G1 X11.757 Y20.708 E62.99635
G1 X11.932 Y20.989 E63.01078
G1 X12.057 Y21.19 E63.01595
G0 F5400 X12.186 Y21.001
G0 X12.338 Y20.776
G0 X12.42 Y20.833
G0 X12.908 Y21.698
;TYPE:SKIN
G1 F1800 X14.348 Y21.698 E63.12881
G1 X14.348 Y24.643 E63.35963
G1 X13.984 Y24.834 E63.39185
G1 X13.96 Y26.606 E63.53075
G1 X14.348 Y26.824 E63.56563
G1 X14.348 Y30.392 E63.84528
G1 X14.022 Y30.575 E63.87458
G1 X14.01 Y32.31 E64.01057
G1 X14.348 Y32.504 E64.04112
G1 X14.348 Y36.145 E64.32649
G1 X13.994 Y36.344 E64.35832
G1 X14.018 Y38.107 E64.49651
G1 X14.348 Y38.284 E64.52586
G1 X14.348 Y38.718 E64.55987
G1 X4.829 Y38.718 E65.30595
G1 X4.829 Y21.698 E66.63993
G1 X7.079 Y21.698 E66.81628
G1 X7.079 Y14.948 E67.34533
G1 X9.506 Y14.948 E67.53555
G1 X9.505 Y21.698 E68.06459
G1 X11.208 Y21.698 E68.19807
G1 X12.019 Y23.004 E68.31856
G1 X12.908 Y21.698 E68.44239
G0 F5400 X10.467 Y20.736
G0 X7.528 Y16.513
G1 F1800 X8.644 Y15.397 E68.56609
G0 F5400 X9.055 Y16.4
G1 F1800 X7.528 Y17.927 E68.73534
G0 F5400 X7.528 Y19.341
G1 F1800 X9.055 Y17.814 E68.9046
G0 F5400 X9.054 Y19.229
G1 F1800 X7.528 Y20.755 E69.07375
G0 F5400 X9.054 Y20.643
G1 F1800 X5.279 Y24.419 E69.49223
G0 F5400 X5.279 Y23.005
G1 F1800 X6.136 Y22.147 E69.58728
G0 F5400 X9.054 Y22.058
G1 F1800 X5.279 Y25.833 E70.00571
G0 F5400 X5.279 Y27.247
G1 F1800 X10.379 Y22.147 E70.571
G0 F5400 X11.277 Y22.663
G1 F1800 X5.279 Y28.661 E71.23583
G0 F5400 X5.279 Y30.076
G1 F1800 X11.819 Y23.536 E71.96074
G0 F5400 X13.014 Y22.341
G1 F1800 X13.208 Y22.147 E71.98225
G0 F5400 X13.898 Y22.871
G1 F1800 X5.279 Y31.49 E72.9376
G0 F5400 X5.279 Y32.904
G1 F1800 X13.536 Y24.646 E73.85288
G0 F5400 X13.719 Y24.464
G1 F1800 X13.898 Y24.285 E73.87272
G0 F5400 X13.517 Y26.08
G1 F1800 X5.279 Y34.318 E74.78584
G0 F5400 X5.279 Y35.732
G1 F1800 X13.898 Y27.114 E75.74113
G0 F5400 X13.898 Y28.528
G1 F1800 X5.279 Y37.147 E76.69648
G0 F5400 X5.572 Y38.267
G1 F1800 X13.898 Y29.942 E77.6193
G0 F5400 X13.563 Y31.691
G1 F1800 X6.986 Y38.267 E78.34825
G0 F5400 X8.401 Y38.267
G1 F1800 X13.897 Y32.771 E78.95744
G0 F5400 X13.897 Y34.185
G1 F1800 X9.815 Y38.267 E79.4099
G0 F5400 X11.229 Y38.267
G1 F1800 X13.897 Y35.599 E79.70562
G0 F5400 X13.557 Y37.354
G1 F1800 X12.643 Y38.267 E79.80688
G0 F5400 X15.31 Y39.236
G0 X26.618 Y39.236
G0 X27.58 Y38.295
G1 F1800 X27.979 Y38.072 E79.8427
G1 X27.937 Y36.275 E79.98359
G1 X27.58 Y36.097 E80.01485
G1 X27.58 Y32.515 E80.2956
G1 X27.984 Y32.272 E80.33255
G1 X27.909 Y30.507 E80.47101
G1 X27.58 Y30.345 E80.49976
G1 X27.58 Y29.198 E80.58965
G1 X27.83 Y29.198 E80.60925
G1 X27.83 Y26.645 E80.80935
G1 X28.034 Y26.513 E80.82839
G1 X27.92 Y24.767 E80.96553
G1 X27.83 Y24.725 E80.97331
G1 X27.83 Y21.699 E81.21048
G1 X27.875 Y21.698 E81.21401
G1 X29.026 Y21.698 E81.30422
G1 X29.226 Y22.053 E81.33616
G1 X30.992 Y22.029 E81.47458
G1 X31.168 Y21.698 E81.50397
G1 X32.507 Y21.698 E81.60891
G1 X32.507 Y14.948 E82.13796
G1 X34.849 Y14.948 E82.32152
G1 X34.849 Y21.698 E82.85057
G1 X37.349 Y21.698 E83.04651
G1 X37.349 Y38.717 E84.38041
G1 X37.322 Y38.718 E84.38253
G1 X27.58 Y38.718 E85.14608
G1 X27.58 Y38.295 E85.17924
G0 F5400 X36.898 Y38.055
G1 F1800 X36.685 Y38.267 E85.20279
G0 F5400 X35.271 Y38.267
G1 F1800 X36.898 Y36.64 E85.38313
G0 F5400 X36.898 Y35.226
G1 F1800 X33.856 Y38.267 E85.72026
G0 F5400 X32.442 Y38.267
G1 F1800 X36.898 Y33.812 E86.21412
G0 F5400 X36.898 Y32.398
G1 F1800 X31.028 Y38.267 E86.86471
G0 F5400 X29.614 Y38.267
G1 F1800 X36.898 Y30.984 E87.67203
G0 F5400 X36.898 Y29.569
G1 F1800 X28.429 Y38.038 E88.61075
G0 F5400 X28.396 Y36.657
G1 F1800 X36.898 Y28.155 E89.55313
G0 F5400 X36.898 Y26.741
G1 F1800 X28.03 Y35.609 E90.53608
G0 F5400 X28.03 Y34.194
G1 F1800 X36.898 Y25.327 E91.51897
G0 F5400 X36.898 Y23.912
G1 F1800 X28.439 Y32.371 E92.45659
G0 F5400 X28.381 Y31.015
G1 F1800 X36.898 Y22.498 E93.40063
G0 F5400 X35.834 Y22.147
G1 F1800 X28.029 Y29.953 E94.26581
G0 F5400 X28.28 Y28.288
G1 F1800 X34.42 Y22.147 E94.94644
G0 F5400 X34.397 Y20.756
G1 F1800 X28.494 Y26.66 E95.60079
G0 F5400 X28.408 Y25.332
G1 F1800 X31.592 Y22.147 E95.95377
G0 F5400 X29.831 Y22.494
G1 F1800 X28.279 Y24.046 E96.1258
G0 F5400 X28.279 Y22.632
G1 F1800 X28.762 Y22.149 E96.17934
G0 F5400 X32.956 Y20.783
G1 F1800 X34.397 Y19.342 E96.33906
G0 F5400 X34.397 Y17.927
G1 F1800 X32.956 Y19.369 E96.49884
G0 F5400 X32.956 Y17.954
G1 F1800 X34.397 Y16.513 E96.65856
G0 F5400 X34.099 Y15.397
G1 F1800 X32.956 Y16.54 E96.78525
G0 F5400 X31.517 Y20.708
G0 X30.364 Y19.555
G0 X27.073 Y19.558
G0 X20.405 Y21.848
G0 X19.32 Y22.316
G0 X19.155 Y22.231
;TYPE:WALL-OUTER
G1 F1800 X19.169 Y22.222 E96.78656
G1 X19.202 Y22.214 E96.78922
G1 X19.218 Y22.214 E96.79047
G1 X19.236 Y22.215 E96.79189
G1 X19.261 Y22.224 E96.79397
G1 X19.272 Y22.228 E96.79489
G1 X19.281 Y22.235 E96.79578
G1 X19.297 Y22.247 E96.79735
G1 X19.313 Y22.268 E96.79942
G1 X19.33 Y22.291 E96.80166
G1 X19.339 Y22.313 E96.80352
G1 X19.339 Y22.374 E96.8083
G1 X19.324 Y22.388
G1 X19.299 Y22.411 E96.80892
G1 X19.274 Y22.435 E96.81007
G1 X19.249 Y22.447 E96.8109
G1 X19.211 Y22.453 E96.81173
G1 X19.197 Y22.451
G1 X19.181 Y22.448 E96.81197
G1 X19.136 Y22.427 E96.81352
G1 X19.12 Y22.414 E96.81367
G1 X19.113 Y22.406
G1 X19.09 Y22.379 E96.81472
G1 X19.09 Y22.318 E96.8162
G1 X19.115 Y22.265 E96.81801
G1 X19.138 Y22.24 E96.8186
G1 X19.155 Y22.231
G0 F5400 X19.169 Y22.222
G0 X19.202 Y22.214
G0 X19.218 Y22.214
G0 X19.236 Y22.215
G0 X19.261 Y22.224
G0 X19.272 Y22.228
G0 X19.281 Y22.235
G0 X19.297 Y22.247
G0 X19.313 Y22.268
G0 X19.33 Y22.291
G0 X19.339 Y22.313
G0 X19.339 Y22.374
G0 X19.324 Y22.388
G0 X19.299 Y22.411
G0 X19.274 Y22.435
G0 X19.249 Y22.447
G0 X19.211 Y22.453
G0 X19.197 Y22.451
G0 X19.181 Y22.448
G0 X19.155 Y22.436
G0 X19.198 Y22.345
G0 X22.866 Y22.379
G0 X23.07 Y22.282
G1 F1800 X23.089 Y22.321 E96.822
G1 X23.089 Y22.374 E96.82616
G1 X23.068 Y22.394 E96.82843
G1 X23.044 Y22.417 E96.83103
G1 X23.021 Y22.438 E96.83348
G1 X22.985 Y22.451 E96.83648
G1 X22.955 Y22.452 E96.83883
G1 X22.918 Y22.443 E96.84181
G1 X22.882 Y22.421 E96.84261
G1 X22.848 Y22.386 E96.84366
G1 X22.848 Y22.371
G1 X22.849 Y22.316 E96.84476
G1 X22.85 Y22.302
G1 X22.854 Y22.29
G1 X22.859 Y22.277
G1 X22.882 Y22.246 E96.84562
G1 X22.907 Y22.227 E96.84614
G1 X22.94 Y22.215 E96.8467
G1 X22.976 Y22.214 E96.84787
G1 X23.008 Y22.222 E96.84827
G1 X23.023 Y22.234
G1 X23.062 Y22.263 E96.84913
G1 X23.07 Y22.282
G0 F5400 X23.089 Y22.321
G0 X23.089 Y22.374
G0 X23.068 Y22.394
G0 X23.044 Y22.417
G0 X23.021 Y22.438
G0 X22.985 Y22.451
G0 X22.955 Y22.452
G0 X22.918 Y22.443
G0 X22.882 Y22.421
G0 X22.848 Y22.386
G0 X22.848 Y22.371
G0 X22.849 Y22.316
G0 X22.85 Y22.302
G0 X22.854 Y22.29
G0 X22.859 Y22.277
G0 X22.862 Y22.273
G0 X22.949 Y22.333
G0 X23.014 Y23.615
G0 X22.687 Y27.055
G0 X22.687 Y29.129
G0 X23.014 Y32.675
G0 X22.957 Y33.858
G0 X22.857 Y34.005
G1 F1800 X22.85 Y33.992 E96.85029
G1 X22.849 Y33.98 E96.85123
G1 X22.845 Y33.957 E96.85306
G1 X22.85 Y33.923 E96.85576
G1 X22.866 Y33.889 E96.8587
G1 X22.887 Y33.866 E96.86114
G1 X22.917 Y33.848 E96.86389
G1 X22.938 Y33.843 E96.86558
G1 X22.955 Y33.839 E96.86695
G1 X22.971 Y33.839 E96.8682
G1 X22.986 Y33.84 E96.86938
G1 X23.022 Y33.853 E96.87238
G1 X23.036 Y33.864 E96.87377
G1 X23.047 Y33.872 E96.87484
G1 X23.069 Y33.902 E96.87621
G1 X23.085 Y33.946 E96.87777
G1 X23.084 Y33.958
G1 X23.078 Y33.992 E96.87841
G1 X23.065 Y34.02 E96.87874
G1 X23.056 Y34.029
G1 X23.035 Y34.051 E96.87907
G1 X22.993 Y34.073 E96.8803
G1 X22.964 Y34.077 E96.88108
G1 X22.953 Y34.076 E96.88114
G1 X22.936 Y34.073 E96.88152
G1 X22.917 Y34.064
G1 X22.894 Y34.052 E96.88155
G1 X22.876 Y34.033 E96.8817
G1 X22.863 Y34.019
G1 X22.857 Y34.005
G0 F5400 X22.85 Y33.992
G0 X22.849 Y33.98
G0 X22.845 Y33.957
G0 X22.85 Y33.923
G0 X22.866 Y33.889
G0 X22.887 Y33.866
G0 X22.917 Y33.848
G0 X22.938 Y33.843
G0 X22.955 Y33.839
G0 X22.971 Y33.839
G0 X22.986 Y33.84
G0 X23.022 Y33.853
G0 X23.036 Y33.864
G0 X23.047 Y33.872
G0 X23.069 Y33.902
G0 X23.085 Y33.946
G0 X23.084 Y33.958
G0 X23.078 Y33.992
G0 X23.065 Y34.02
G0 X23.056 Y34.029
G0 X23.052 Y34.034
G0 X22.98 Y33.964
G0 X19.315 Y33.948
G0 X19.24 Y34.072
G1 F1800 X19.223 Y34.077 E96.88309
G1 X19.205 Y34.077 E96.8845
G1 X19.192 Y34.076 E96.88552
G1 X19.161 Y34.064 E96.88812
G1 X19.13 Y34.042 E96.8911
G1 X19.108 Y34.011 E96.89408
G1 X19.104 Y34.001 E96.89493
G1 X19.096 Y33.98 E96.89669
G1 X19.095 Y33.948 E96.8992
G1 X19.097 Y33.937 E96.90007
G1 X19.104 Y33.911 E96.90218
G1 X19.122 Y33.881 E96.90493
G1 X19.135 Y33.87 E96.90626
G1 X19.146 Y33.86 E96.90743
G1 X19.158 Y33.855 E96.90754
