;FLAVOR:Marlin
;TIME:430
;Filament used: 1.43085m
;Layer height: 0.6
;MINX:4.75
;MINY:3.823
;MINZ:0.3
;MAXX:39.65
;MAXY:37.426
;MAXZ:18.9
;Generated with Cura_SteamEngine 4.6.0
M104 S200
M105
M109 S200
M82 ;absolute extrusion mode
G28 ;Home
G92 E0
G92 E0
;LAYER_COUNT:32
;LAYER:0
M107
;MESH:Roman_Terrace_Garden.stl
G0 F3600 X7 Y18.026 Z0.3
;TYPE:WALL-OUTER
G1 F1800 X7 Y11.276 E0.50514
G1 X10.835 Y11.276 E0.79213
G1 X10.835 Y10.336 E0.86248
G1 X22.117 Y3.823 E1.83736
G1 X33.4 Y10.336 E2.8123
G1 X33.4 Y11.276 E2.88265
G1 X37.15 Y11.276 E3.16328
G1 X37.15 Y18.026 E3.66842
G1 X38.879 Y18.026 E3.79781
G1 X39.051 Y18.036 E3.8107
G1 X39.278 Y18.109 E3.82854
G1 X39.351 Y18.154 E3.83496
G1 X39.514 Y18.317 E3.85221
G1 X39.616 Y18.518 E3.86908
G1 X39.641 Y18.621 E3.87701
G1 X39.65 Y18.736 E3.88564
G1 X39.65 Y36.507 E5.21554
G1 X39.639 Y36.832 E5.23988
G1 X39.57 Y37.042 E5.25642
G1 X39.438 Y37.224 E5.27325
G1 X39.366 Y37.286 E5.28036
G1 X39.158 Y37.392 E5.29783
G1 X39.063 Y37.415 E5.30514
G1 X38.805 Y37.426 E5.32447
G1 X5.714 Y37.426 E7.80084
G1 X5.344 Y37.415 E7.82854
G1 X5.125 Y37.344 E7.84577
G1 X5.047 Y37.296 E7.85263
G1 X4.887 Y37.136 E7.86956
G1 X4.781 Y36.926 E7.88716
G1 X4.759 Y36.838 E7.89395
G1 X4.75 Y36.716 E7.90311
G1 X4.75 Y18.888 E9.23727
G1 X4.76 Y18.622 E9.25719
G1 X4.829 Y18.411 E9.2738
G1 X4.965 Y18.224 E9.29111
G1 X5.029 Y18.169 E9.29742
G1 X5.237 Y18.063 E9.31489
G1 X5.472 Y18.026 E9.33269
G1 X7 Y18.026 E9.44704
G0 F3600 X7 Y17.726
G0 X7.1 Y17.726
G0 X7.59 Y18.616
;TYPE:SKIN
G1 F1800 X7.59 Y11.866 E9.95218
G1 X11.425 Y11.866 E10.23917
G1 X11.425 Y10.676 E10.32823
G1 X22.117 Y4.505 E11.25207
G1 X32.81 Y10.676 E12.17598
G1 X32.81 Y11.866 E12.26504
G1 X36.56 Y11.866 E12.54567
G1 X36.56 Y18.616 E13.05081
G1 X38.938 Y18.62 E13.22877
G1 X39.004 Y18.641 E13.23395
G1 X39.029 Y18.666 E13.2366
G1 X39.057 Y18.722 E13.24128
G1 X39.06 Y18.753 E13.24361
G1 X39.06 Y36.487 E14.57074
G1 X39.051 Y36.727 E14.58871
G1 X39.037 Y36.771 E14.59217
G1 X39.014 Y36.803 E14.59512
G1 X38.966 Y36.828 E14.59917
G1 X38.779 Y36.836 E14.61318
G1 X5.732 Y36.836 E17.08626
G1 X5.445 Y36.827 E17.10775
G1 X5.397 Y36.812 E17.11151
G1 X5.372 Y36.787 E17.11416
G1 X5.342 Y36.728 E17.11911
G1 X5.34 Y36.701 E17.12114
G1 X5.34 Y18.909 E18.45261
G1 X5.347 Y18.724 E18.46646
G1 X5.36 Y18.684 E18.46961
G1 X5.385 Y18.649 E18.47283
G1 X5.422 Y18.631 E18.47591
G1 X5.514 Y18.616 E18.48288
G1 X7.59 Y18.616 E18.63824
G0 F3600 X5.609 Y36
G1 F1800 X38.79 Y36 E21.12135
G0 F3600 X38.79 Y35.4
G1 F1800 X5.609 Y35.4 E23.60446
G0 F3600 X5.609 Y34.8
G1 F1800 X38.79 Y34.8 E26.08757
G0 F3600 X38.79 Y34.2
G1 F1800 X5.609 Y34.2 E28.57068
G0 F3600 X5.609 Y33.6
G1 F1800 X38.79 Y33.6 E31.05379
G0 F3600 X38.79 Y33
G1 F1800 X5.609 Y33 E33.5369
G0 F3600 X5.609 Y32.4
G1 F1800 X38.79 Y32.4 E36.02001
G0 F3600 X38.79 Y31.8
G1 F1800 X5.609 Y31.8 E38.50312
G0 F3600 X5.609 Y31.2
G1 F1800 X38.79 Y31.2 E40.98623
G0 F3600 X38.79 Y30.6
G1 F1800 X5.609 Y30.6 E43.46934
G0 F3600 X5.609 Y30
G1 F1800 X38.79 Y30 E45.95245
G0 F3600 X38.79 Y29.4
G1 F1800 X5.609 Y29.4 E48.43556
G0 F3600 X5.609 Y28.8
G1 F1800 X38.79 Y28.8 E50.91867
G0 F3600 X38.79 Y28.2
G1 F1800 X5.609 Y28.2 E53.40178
G0 F3600 X5.609 Y27.6
G1 F1800 X38.79 Y27.6 E55.88489
G0 F3600 X38.79 Y27
G1 F1800 X5.609 Y27 E58.368
G0 F3600 X5.609 Y26.4
G1 F1800 X38.79 Y26.4 E60.85111
G0 F3600 X38.79 Y25.8
G1 F1800 X5.609 Y25.8 E63.33422
G0 F3600 X5.609 Y25.2
G1 F1800 X38.79 Y25.2 E65.81733
G0 F3600 X38.79 Y24.6
G1 F1800 X5.609 Y24.6 E68.30044
G0 F3600 X5.609 Y24
G1 F1800 X38.79 Y24 E70.78355
G0 F3600 X38.79 Y23.4
G1 F1800 X5.609 Y23.4 E73.26666
G0 F3600 X5.609 Y22.8
G1 F1800 X38.79 Y22.8 E75.74977
G0 F3600 X38.79 Y22.2
G1 F1800 X5.609 Y22.2 E78.23288
G0 F3600 X5.609 Y21.6
G1 F1800 X38.79 Y21.6 E80.71599
G0 F3600 X38.79 Y21
G1 F1800 X5.609 Y21 E83.1991
G0 F3600 X5.609 Y20.4
G1 F1800 X38.79 Y20.4 E85.68221
G0 F3600 X38.79 Y19.8
G1 F1800 X5.609 Y19.8 E88.16533
G0 F3600 X5.609 Y19.2
G1 F1800 X38.79 Y19.2 E90.64844
G1 X38.94 Y19.2
G0 F3600 X36.29 Y18.6
G1 F1800 X7.859 Y18.6 E92.77608
G0 F3600 X7.859 Y18
G1 F1800 X36.29 Y18 E94.90372
G0 F3600 X36.29 Y17.4
G1 F1800 X7.859 Y17.4 E97.03136
G0 F3600 X7.859 Y16.8
G1 F1800 X36.29 Y16.8 E99.15901
G0 F3600 X36.29 Y16.2
G1 F1800 X7.859 Y16.2 E101.28665
G0 F3600 X7.859 Y15.6
G1 F1800 X36.29 Y15.6 E103.41429
G0 F3600 X36.29 Y15
G1 F1800 X7.859 Y15 E105.54193
G0 F3600 X7.859 Y14.4
G1 F1800 X36.29 Y14.4 E107.66958
G0 F3600 X36.29 Y13.8
G1 F1800 X7.859 Y13.8 E109.79722
G0 F3600 X7.859 Y13.2
G1 F1800 X36.29 Y13.2 E111.92486
G0 F3600 X36.29 Y12.6
G1 F1800 X7.859 Y12.6 E114.0525
G1 X7.709 Y12.6
G0 F3600 X11.695 Y12
G1 F1800 X32.54 Y12 E115.61244
G0 F3600 X32.54 Y11.4
G1 F1800 X11.695 Y11.4 E117.17239
G0 F3600 X11.751 Y10.8
G1 F1800 X32.487 Y10.8 E118.72417
G1 X32.637 Y10.8
G0 F3600 X31.447 Y10.2
G1 F1800 X12.79 Y10.2 E120.12037
G1 X12.64 Y10.2
G0 F3600 X13.83 Y9.6
G1 F1800 X30.407 Y9.6 E121.36092
G0 F3600 X29.368 Y9
G1 F1800 X14.869 Y9 E122.44596
G1 X14.719 Y9
G0 F3600 X15.909 Y8.4
G1 F1800 X28.328 Y8.4 E123.37534
G1 X28.478 Y8.4
G0 F3600 X27.288 Y7.8
G1 F1800 X16.948 Y7.8 E124.14913
G1 X16.798 Y7.8
G0 F3600 X17.988 Y7.2
G1 F1800 X26.249 Y7.2 E124.76735
G1 X26.399 Y7.2
G0 F3600 X25.209 Y6.6
G1 F1800 X19.027 Y6.6 E125.22998
G0 F3600 X20.066 Y6
G1 F1800 X24.169 Y6 E125.53703
G1 X24.319 Y6
G0 F3600 X23.129 Y5.4
G1 F1800 X21.106 Y5.4 E125.68842
G1 X20.956 Y5.4
;MESH:NONMESH
G0 F600 X20.956 Y5.4 Z0.9
G0 F3600 X7.07 Y18.096
G0 X7 Y18.026
;TIME_ELAPSED:58.482778
;LAYER:1
;TYPE:WALL-OUTER
;MESH:Roman_Terrace_Garden.stl
G1 F1800 X7 Y11.276 E126.6987
G1 X10.518 Y11.276 E127.22524
G1 X10.835 Y11.218 E127.27347
G1 X10.835 Y10.336 E127.40548
G1 X22.117 Y3.823 E129.35524
G1 X33.4 Y10.336 E131.30513
G1 X33.4 Y11.276 E131.44582
G1 X37.15 Y11.276 E132.00708
G1 X37.15 Y18.026 E133.01736
G1 X38.727 Y18.026 E133.25339
G1 X39.053 Y18.037 E133.30221
G1 X39.271 Y18.106 E133.33643
G1 X39.356 Y18.159 E133.35143
G1 X39.514 Y18.317 E133.38487
G1 X39.616 Y18.518 E133.41861
G1 X39.641 Y18.621 E133.43447
G1 X39.65 Y18.736 E133.45173
G1 X39.65 Y36.703 E136.14087
G1 X39.613 Y36.941 E136.17692
G1 X39.512 Y37.14 E136.21032
G1 X39.451 Y37.212 E136.22444
G1 X39.265 Y37.347 E136.25884
G1 X39.048 Y37.418 E136.29301
G1 X38.94 Y37.426 E136.30922
G1 X27.5 Y37.426 E138.02145
G1 X16.649 Y37.426 E139.64553
G1 X5.862 Y37.426 E141.26002
G1 X5.343 Y37.415 E141.33772
G1 X5.135 Y37.347 E141.37047
G1 X4.948 Y37.211 E141.40508
G1 X4.89 Y37.143 E141.41846
G1 X4.781 Y36.928 E141.45454
G1 X4.759 Y36.838 E141.4684
G1 X4.75 Y36.716 E141.48671
G1 X4.75 Y18.743 E144.17674
G1 X4.787 Y18.508 E144.21235
G1 X4.826 Y18.415 E144.22744
G1 X4.965 Y18.224 E144.2628
G1 X5.033 Y18.166 E144.27618
G1 X5.236 Y18.063 E144.31025
G1 X5.472 Y18.026 E144.346
G1 X7 Y18.026 E144.5747
G0 F5400 X7 Y17.726
G0 X7.1 Y17.726
G0 X13.168 Y19.06
G0 X13.171 Y18.961
G1 F1800 X13.441 Y18.537 E144.64993
G1 X13.628 Y18.245 E144.70183
G1 X13.667 Y18.026 E144.73512
G1 X15.514 Y18.026 E145.01156
G1 X16.054 Y18.036 E145.0924
G1 X16.265 Y18.105 E145.12563
G1 X16.45 Y18.239 E145.15982
G1 X16.518 Y18.319 E145.17553
G1 X16.567 Y18.398 E145.18944
G1 X16.642 Y18.628 E145.22565
G1 X16.65 Y18.742 E145.24276
G1 X16.65 Y19.926 E145.41997
G1 X16.649 Y19.926 E145.42012
G1 X16.649 Y22.737 E145.84084
G1 X16.202 Y22.813 E145.9087
G1 X15.979 Y22.93 E145.94639
G1 X15.848 Y22.937 E145.96603
G1 X15.762 Y22.987 E145.98092
G1 X15.56 Y23.103 E146.01578
G1 X15.592 Y23.484 E146.07301
G1 X15.811 Y23.563 E146.10785
G1 X16.189 Y23.702 E146.16813
G1 X16.649 Y23.781 E146.23799
G1 X16.649 Y25.527 E146.49931
G1 X19.649 Y25.527 E146.94833
G1 X19.649 Y25.925 E147.00789
G1 X16.649 Y25.925 E147.30574
G1 X16.649 Y28.461 E147.6853
G1 X16.209 Y28.534 E147.75206
G1 X15.934 Y28.687 E147.79916
G1 X15.742 Y28.793 E147.83198
G1 X15.738 Y29.14 E147.88392
G1 X15.927 Y29.252 E147.91681
G1 X16.204 Y29.417 E147.96506
G1 X16.649 Y29.493 E148.03263
G1 X16.649 Y34.211 E148.73878
G1 X16.209 Y34.284 E148.80553
G1 X15.934 Y34.437 E148.85263
G1 X15.743 Y34.543 E148.88533
G1 X15.738 Y34.89 E148.93727
G1 X15.926 Y35.002 E148.97002
G1 X16.194 Y35.162 E149.01674
G1 X16.649 Y35.241 E149.08586
G1 X16.649 Y37.027 E149.35317
G1 X27.5 Y37.027 E150.43318
G1 X27.5 Y35.25 E150.69914
G1 X27.813 Y35.195 E150.74671
G1 X28.032 Y35.137 E150.78062
G1 X28.259 Y35.009 E150.81962
G1 X28.453 Y34.9 E150.85292
G1 X28.447 Y34.544 E150.90622
G1 X28.25 Y34.44 E150.93956
G1 X27.948 Y34.28 E150.99071
G1 X27.5 Y34.204 E151.05872
G1 X27.5 Y29.499 E151.76292
G1 X27.813 Y29.445 E151.81046
G1 X28.036 Y29.386 E151.84498
G1 X28.259 Y29.252 E151.88392
G1 X28.448 Y29.139 E151.91688
G1 X28.438 Y28.788 E151.96944
G1 X28.243 Y28.686 E152.00237
G1 X27.947 Y28.53 E152.05245
G1 X27.5 Y28.454 E152.12032
G1 X27.5 Y25.925 E152.49883
G1 X24.751 Y25.925 E152.91028
G1 X24.751 Y25.527 E152.96985
G1 X27.5 Y25.527 E153.24277
G1 X27.75 Y25.527 E153.28019
G1 X27.75 Y23.744 E153.54705
G1 X28.03 Y23.692 E153.58968
G1 X28.293 Y23.543 E153.63492
G1 X28.488 Y23.432 E153.6685
G1 X28.478 Y23.071 E153.72255
G1 X28.277 Y22.972 E153.75609
G1 X27.945 Y22.808 E153.81151
G1 X27.75 Y22.776 E153.84109
G1 X27.75 Y20.687 E154.15375
G1 X27.74 Y20.026 E154.25269
G1 X27.75 Y20.026 E154.25419
G1 X27.75 Y18.743 E154.44621
G1 X27.758 Y18.628 E154.46347
G1 X27.832 Y18.401 E154.4992
G1 X27.88 Y18.323 E154.51291
G1 X28.041 Y18.162 E154.54699
G1 X28.235 Y18.064 E154.57952
G1 X28.472 Y18.026 E154.61545
G1 X30.682 Y18.026 E154.94622
G1 X30.758 Y18.468 E155.01334
G1 X30.917 Y18.75 E155.0618
G1 X31.025 Y18.942 E155.09477
G1 X31.377 Y18.942 E155.14745
G1 X31.484 Y18.749 E155.18048
G1 X31.636 Y18.475 E155.22738
G1 X31.715 Y18.026 E155.29561
G1 X32.525 Y18.026 E155.41684
G1 X32.525 Y10.841 E156.49223
G1 X22.117 Y4.833 E158.29091
G1 X11.709 Y10.841 E160.08959
G1 X11.708 Y17.726 E161.12007
G1 X11.708 Y18.026 E161.16497
G1 X12.008 Y18.026 E161.19401
G1 X12.725 Y18.026 E161.30132
G1 X12.758 Y18.216 E161.33019
G1 X12.927 Y18.521 E161.38237
G1 X12.928 Y18.522 E161.38259
G1 X13.171 Y18.961 E161.42534
G0 F5400 X13.332 Y18.708
G0 X14.091 Y18.616
;TYPE:SKIN
G1 F1800 X15.503 Y18.616 E161.63668
G1 X15.954 Y18.624 E161.70419
G1 X15.994 Y18.637 E161.71049
G1 X16.035 Y18.667 E161.71809
G1 X16.059 Y18.741 E161.72973
G1 X16.06 Y18.743 E161.73007
G1 X16.06 Y19.336 E161.81882
G1 X16.059 Y19.336 E161.81897
G1 X16.059 Y22.239 E162.25347
G1 X16.011 Y22.247 E162.26075
G1 X15.82 Y22.347 E162.29302
G1 X15.676 Y22.355 E162.3146
G1 X14.941 Y22.779 E162.4416
G1 X15.036 Y23.909 E162.61133
G1 X16.059 Y24.278 E162.7741
G1 X16.059 Y27.961 E163.32533
G1 X16.012 Y27.969 E163.33247
G1 X15.156 Y28.443 E163.47892
G1 X15.144 Y29.473 E163.63309
G1 X15.997 Y29.98 E163.78161
G1 X16.059 Y29.991 E163.79103
G1 X16.059 Y33.711 E164.34781
G1 X16.012 Y33.719 E164.35494
G1 X15.158 Y34.193 E164.50113
G1 X15.144 Y35.222 E164.65516
G1 X15.985 Y35.724 E164.80175
G1 X16.059 Y35.737 E164.81299
G1 X16.059 Y36.836 E164.97748
G1 X5.874 Y36.836 E166.50188
G1 X5.443 Y36.827 E166.5664
G1 X5.409 Y36.816 E166.57175
G1 X5.374 Y36.79 E166.57827
G1 X5.342 Y36.727 E166.58885
G1 X5.34 Y36.703 E166.59245
G1 X5.34 Y18.783 E169.27455
G1 X5.354 Y18.693 E169.28818
G1 X5.387 Y18.648 E169.29653
G1 X5.421 Y18.631 E169.30222
G1 X5.518 Y18.616 E169.31691
G1 X7.59 Y18.616 E169.62703
G1 X7.59 Y11.866 E170.63731
G1 X10.571 Y11.866 E171.08348
G1 X11.119 Y11.766 E171.16685
G1 X11.118 Y18.616 E172.19209
G1 X12.305 Y18.616 E172.36975
G1 X13.136 Y20.114 E172.62615
G1 X14.091 Y18.616 E172.89204
G0 F5400 X11.68 Y18.054
G0 X11.675 Y10.821
G0 X22.117 Y4.793
G0 X32.559 Y10.821
G0 X32.553 Y18.054
G0 X31.397 Y18.976
G0 X28.34 Y18.745
G1 F1800 X28.363 Y18.674 E172.90321
G1 X28.391 Y18.646 E172.90914
G1 X28.421 Y18.631 E172.91416
G1 X28.514 Y18.616 E172.92826
G1 X30.185 Y18.616 E173.17836
G1 X30.194 Y18.669 E173.1864
G1 X30.681 Y19.532 E173.33472
G1 X31.725 Y19.532 E173.49097
G1 X32.2 Y18.675 E173.63762
G1 X32.21 Y18.616 E173.64658
G1 X33.115 Y18.616 E173.78203
G1 X33.115 Y11.866 E174.79231
G1 X36.56 Y11.866 E175.30792
G1 X36.56 Y18.616 E176.3182
G1 X38.804 Y18.619 E176.65406
G1 X38.953 Y18.625 E176.67638
G1 X39.003 Y18.64 E176.68419
G1 X39.029 Y18.666 E176.6897
G1 X39.057 Y18.721 E176.69893
G1 X39.06 Y18.753 E176.70374
G1 X39.06 Y36.658 E179.3836
G1 X39.045 Y36.756 E179.39844
G1 X39.027 Y36.79 E179.40419
G1 X38.991 Y36.816 E179.41084
G1 X38.934 Y36.835 E179.41983
G1 X38.927 Y36.836 E179.42089
G1 X28.09 Y36.836 E181.04287
G1 X28.09 Y35.732 E181.20811
G1 X28.256 Y35.688 E181.23381
G1 X29.049 Y35.242 E181.36998
G1 X29.031 Y34.186 E181.52806
G1 X28.141 Y33.714 E181.67884
G1 X28.09 Y33.705 E181.68659
G1 X28.09 Y29.982 E182.24381
G1 X28.268 Y29.935 E182.27137
G1 X29.048 Y29.467 E182.40751
G1 X29.018 Y28.426 E182.56338
G1 X28.138 Y27.964 E182.71214
G1 X28.09 Y27.956 E182.71943
G1 X28.09 Y26.117 E182.99467
G1 X28.34 Y26.117 E183.03209
G1 X28.34 Y24.194 E183.3199
G1 X29.088 Y23.77 E183.44859
G1 X29.058 Y22.699 E183.60895
G1 X28.34 Y22.345 E183.72877
G1 X28.339 Y20.616 E183.98755
G1 X28.34 Y20.616 E183.9877
G1 X28.34 Y18.745 E184.26773
G0 F5400 X28.522 Y23.451
G0 X28.487 Y34.919
G0 X28.359 Y36
G1 F1800 X38.79 Y36 E185.82895
G0 F5400 X38.79 Y35.4
G1 F1800 X29.32 Y35.4 E187.24633
G0 F5400 X29.31 Y34.8
G1 F1800 X38.79 Y34.8 E188.6652
G0 F5400 X38.79 Y34.2
G1 F1800 X29.3 Y34.2 E190.08558
G0 F5400 X28.5 Y33.6
G1 F1800 X38.79 Y33.6 E191.62569
G0 F5400 X38.79 Y33
G1 F1800 X28.359 Y33 E193.1869
G0 F5400 X28.359 Y32.4
G1 F1800 X38.79 Y32.4 E194.74812
G0 F5400 X38.79 Y31.8
G1 F1800 X28.359 Y31.8 E196.30933
G0 F5400 X28.359 Y31.2
G1 F1800 X38.79 Y31.2 E197.87055
G0 F5400 X38.79 Y30.6
G1 F1800 X28.359 Y30.6 E199.43176
G0 F5400 X28.684 Y30
G1 F1800 X38.79 Y30 E200.94433
G0 F5400 X38.79 Y29.4
G1 F1800 X29.315 Y29.4 E202.36246
G0 F5400 X29.299 Y28.8
G1 F1800 X38.79 Y28.8 E203.78298
G0 F5400 X38.79 Y28.2
G1 F1800 X29.168 Y28.2 E205.22311
G0 F5400 X28.36 Y27.6
G1 F1800 X38.79 Y27.6 E206.78418
G0 F5400 X38.79 Y27
G1 F1800 X28.36 Y27 E208.34524
G0 F5400 X28.36 Y26.4
G1 F1800 X38.79 Y26.4 E209.90631
G0 F5400 X38.79 Y25.8
G1 F1800 X28.61 Y25.8 E211.42995
G0 F5400 X28.61 Y25.2
G1 F1800 X38.79 Y25.2 E212.9536
G0 F5400 X38.79 Y24.6
G1 F1800 X28.61 Y24.6 E214.47725
G0 F5400 X29.23 Y24
G1 F1800 X38.79 Y24 E215.9081
G0 F5400 X38.79 Y23.4
G1 F1800 X29.347 Y23.4 E217.32144
G0 F5400 X29.33 Y22.8
G1 F1800 X38.79 Y22.8 E218.73732
G0 F5400 X38.79 Y22.2
G1 F1800 X28.656 Y22.2 E220.25408
G0 F5400 X28.609 Y21.6
G1 F1800 X38.79 Y21.6 E221.77788
G0 F5400 X38.79 Y21
G1 F1800 X28.609 Y21 E223.30168
G0 F5400 X28.61 Y20.4
G1 F1800 X38.79 Y20.4 E224.82532
G0 F5400 X38.79 Y19.8
G1 F1800 X31.885 Y19.8 E225.8588
G0 F5400 X32.217 Y19.2
G1 F1800 X38.79 Y19.2 E226.84258
G1 X38.94 Y19.2
G0 F5400 X36.29 Y18.6
G1 F1800 X33.385 Y18.6 E227.27738
G0 F5400 X33.385 Y18
G1 F1800 X36.29 Y18 E227.71217
G0 F5400 X36.29 Y17.4
G1 F1800 X33.385 Y17.4 E228.14696
G0 F5400 X33.385 Y16.8
G1 F1800 X36.29 Y16.8 E228.58176
G0 F5400 X36.29 Y16.2
G1 F1800 X33.385 Y16.2 E229.01655
G0 F5400 X33.385 Y15.6
G1 F1800 X36.29 Y15.6 E229.45134
G0 F5400 X36.29 Y15
G1 F1800 X33.385 Y15 E229.88614
G0 F5400 X33.385 Y14.4
G1 F1800 X36.29 Y14.4 E230.32093
G0 F5400 X36.29 Y13.8
G1 F1800 X33.385 Y13.8 E230.75572
G0 F5400 X33.385 Y13.2
G1 F1800 X36.29 Y13.2 E231.19052
G0 F5400 X36.29 Y12.6
G1 F1800 X33.385 Y12.6 E231.62531
G1 X33.235 Y12.6
G0 F5400 X32.553 Y18.054
G0 X31.397 Y18.976
G0 X30.185 Y19.2
G1 F1800 X28.61 Y19.2 E231.86104
G0 F5400 X28.61 Y19.8
G1 F1800 X30.524 Y19.8 E232.14751
G1 X30.674 Y19.8
G0 F5400 X32.553 Y18.054
G0 X32.559 Y10.821
G0 X22.117 Y4.793
G0 X11.675 Y10.821
G0 X11.68 Y18.054
G0 X13.17 Y19
G0 X15.788 Y19.8
G1 F1800 X13.656 Y19.8 E232.46661
G0 F5400 X14.038 Y19.2
G1 F1800 X15.788 Y19.2 E232.72853
G0 F5400 X15.788 Y20.4
G1 F1800 X13.274 Y20.4 E233.1048
G0 F5400 X12.985 Y20.4
G1 F1800 X5.609 Y20.4 E234.20877
G0 F5400 X5.609 Y19.8
G1 F1800 X12.652 Y19.8 E235.2629
G0 F5400 X12.32 Y19.2
G1 F1800 X5.609 Y19.2 E236.26734
G1 X5.459 Y19.2
G0 F5400 X5.609 Y21
G1 F1800 X15.788 Y21 E237.79084
G0 F5400 X15.788 Y21.6
G1 F1800 X5.609 Y21.6 E239.31434
G0 F5400 X5.609 Y22.2
G1 F1800 X15.403 Y22.2 E240.78021
